( PCB Contour )
( Generated by Rapid-PCB.com )
( Material Size)
( X= 85.000, Y= 47.000, Z= 1.200)
()
G00
G17
G21
G40
G49
G54
G80
G90
G94
G00 F3000 Z3.000
M03 S9000
G00 F3000 X75.604 Y46.384
G00 F1500 Z0
G01 F200 Z-0.200
G01 F200 X75.432 Y46.348
G01 F200 X75.272 Y46.276
G01 F200 X75.130 Y46.173
G01 F200 X75.013 Y46.043
G01 F200 X74.925 Y45.891
G01 F200 X74.871 Y45.724
G01 F200 X74.853 Y45.550
G01 F200 X74.871 Y45.376
G01 F200 X74.925 Y45.209
G01 F200 X75.013 Y45.057
G01 F200 X75.130 Y44.927
G01 F200 X75.272 Y44.824
G01 F200 X75.432 Y44.752
G01 F200 X75.604 Y44.716
G01 F200 X75.779 Y44.716
G01 F200 X75.951 Y44.752
G01 F200 X76.111 Y44.824
G01 F200 X76.252 Y44.927
G01 F200 X76.370 Y45.057
G01 F200 X76.458 Y45.209
G01 F200 X76.512 Y45.376
G01 F200 X76.530 Y45.550
G01 F200 X76.512 Y45.724
G01 F200 X76.458 Y45.891
G01 F200 X76.370 Y46.043
G01 F200 X76.252 Y46.173
G01 F200 X76.111 Y46.276
G01 F200 X75.951 Y46.348
G01 F200 X75.779 Y46.384
G01 F200 X75.604 Y46.384
G00 F3000 Z3.000
G00 F3000 X23.157 Y45.420
G00 F1500 Z0
G01 F200 Z-0.200
G01 F200 X23.090 Y45.406
G01 F200 X23.027 Y45.378
G01 F200 X22.974 Y45.339
G01 F200 X3.079 Y25.444
G01 F200 X3.037 Y25.398
G01 F200 X3.003 Y25.339
G01 F200 X2.982 Y25.274
G01 F200 X2.975 Y25.210
G01 F200 X2.975 Y22.149
G01 F200 X2.863 Y22.099
G01 F200 X2.715 Y21.992
G01 F200 X2.592 Y21.855
G01 F200 X2.500 Y21.697
G01 F200 X2.444 Y21.522
G01 F200 X2.425 Y21.340
G01 F200 X2.444 Y21.158
G01 F200 X2.500 Y20.983
G01 F200 X2.592 Y20.825
G01 F200 X2.715 Y20.689
G01 F200 X2.863 Y20.581
G01 F200 X2.975 Y20.531
G01 F200 X2.975 Y20.226
G01 F200 X2.982 Y20.162
G01 F200 X3.003 Y20.097
G01 F200 X3.037 Y20.038
G01 F200 X3.079 Y19.992
G01 F200 X6.386 Y16.684
G01 F200 X6.334 Y16.522
G01 F200 X6.315 Y16.340
G01 F200 X6.334 Y16.158
G01 F200 X6.390 Y15.983
G01 F200 X6.482 Y15.825
G01 F200 X6.605 Y15.689
G01 F200 X6.753 Y15.581
G01 F200 X6.920 Y15.506
G01 F200 X7.100 Y15.468
G01 F200 X7.283 Y15.468
G01 F200 X7.462 Y15.506
G01 F200 X7.630 Y15.581
G01 F200 X7.778 Y15.689
G01 F200 X7.901 Y15.825
G01 F200 X7.992 Y15.983
G01 F200 X8.049 Y16.158
G01 F200 X8.068 Y16.340
G01 F200 X8.049 Y16.522
G01 F200 X7.992 Y16.697
G01 F200 X7.901 Y16.855
G01 F200 X7.778 Y16.992
G01 F200 X7.630 Y17.099
G01 F200 X7.462 Y17.174
G01 F200 X7.283 Y17.212
G01 F200 X7.100 Y17.212
G01 F200 X6.920 Y17.174
G01 F200 X6.850 Y17.142
G01 F200 X3.628 Y20.365
G01 F200 X3.628 Y20.531
G01 F200 X3.740 Y20.581
G01 F200 X3.888 Y20.689
G01 F200 X4.011 Y20.825
G01 F200 X4.102 Y20.983
G01 F200 X4.159 Y21.158
G01 F200 X4.178 Y21.340
G01 F200 X4.159 Y21.522
G01 F200 X4.102 Y21.697
G01 F200 X4.011 Y21.855
G01 F200 X3.888 Y21.992
G01 F200 X3.740 Y22.099
G01 F200 X3.628 Y22.149
G01 F200 X3.628 Y25.071
G01 F200 X23.327 Y44.770
G01 F200 X42.345 Y44.770
G01 F200 X42.345 Y44.636
G01 F200 X42.333 Y44.631
G01 F200 X42.218 Y44.548
G01 F200 X42.124 Y44.443
G01 F200 X42.053 Y44.320
G01 F200 X42.009 Y44.186
G01 F200 X41.995 Y44.049
G01 F200 X41.995 Y43.241
G01 F200 X42.009 Y43.104
G01 F200 X42.053 Y42.970
G01 F200 X42.124 Y42.847
G01 F200 X42.218 Y42.742
G01 F200 X42.333 Y42.659
G01 F200 X42.462 Y42.601
G01 F200 X42.601 Y42.572
G01 F200 X42.742 Y42.572
G01 F200 X42.880 Y42.601
G01 F200 X43.010 Y42.659
G01 F200 X43.124 Y42.742
G01 F200 X43.219 Y42.847
G01 F200 X43.290 Y42.970
G01 F200 X43.333 Y43.104
G01 F200 X43.348 Y43.241
G01 F200 X43.348 Y43.320
G01 F200 X47.000 Y43.320
G01 F200 X53.660 Y36.660
G01 F200 X48.817 Y31.817
G01 F200 X48.775 Y31.771
G01 F200 X48.741 Y31.712
G01 F200 X48.720 Y31.647
G01 F200 X48.713 Y31.583
G01 F200 X48.713 Y25.931
G01 F200 X48.720 Y25.867
G01 F200 X48.741 Y25.802
G01 F200 X48.775 Y25.743
G01 F200 X48.817 Y25.696
G01 F200 X50.172 Y24.341
G01 F200 X50.226 Y24.302
G01 F200 X50.288 Y24.274
G01 F200 X50.355 Y24.260
G01 F200 X54.552 Y24.260
G01 F200 X54.514 Y24.142
G01 F200 X54.495 Y23.960
G01 F200 X54.514 Y23.778
G01 F200 X54.570 Y23.603
G01 F200 X54.662 Y23.445
G01 F200 X54.785 Y23.309
G01 F200 X54.933 Y23.201
G01 F200 X55.100 Y23.126
G01 F200 X55.280 Y23.088
G01 F200 X55.463 Y23.088
G01 F200 X55.642 Y23.126
G01 F200 X55.810 Y23.201
G01 F200 X55.958 Y23.309
G01 F200 X56.081 Y23.445
G01 F200 X56.172 Y23.603
G01 F200 X56.229 Y23.778
G01 F200 X56.248 Y23.960
G01 F200 X56.229 Y24.142
G01 F200 X56.172 Y24.317
G01 F200 X56.081 Y24.475
G01 F200 X55.958 Y24.611
G01 F200 X55.810 Y24.719
G01 F200 X55.698 Y24.769
G01 F200 X55.698 Y24.885
G01 F200 X61.903 Y24.885
G01 F200 X61.970 Y24.900
G01 F200 X62.033 Y24.927
G01 F200 X62.088 Y24.968
G01 F200 X62.134 Y25.018
G01 F200 X62.168 Y25.077
G01 F200 X62.189 Y25.142
G01 F200 X62.196 Y25.211
G01 F200 X62.192 Y25.240
G01 F200 X65.487 Y28.535
G01 F200 X70.072 Y28.535
G01 F200 X70.138 Y28.549
G01 F200 X70.201 Y28.577
G01 F200 X70.254 Y28.616
G01 F200 X70.353 Y28.715
G01 F200 X81.159 Y28.715
G01 F200 X81.657 Y28.217
G01 F200 X81.657 Y20.227
G01 F200 X81.113 Y19.682
G01 F200 X81.042 Y19.714
G01 F200 X80.863 Y19.752
G01 F200 X80.680 Y19.752
G01 F200 X80.500 Y19.714
G01 F200 X80.333 Y19.639
G01 F200 X80.185 Y19.532
G01 F200 X80.062 Y19.395
G01 F200 X79.970 Y19.237
G01 F200 X79.914 Y19.062
G01 F200 X79.895 Y18.880
G01 F200 X79.914 Y18.698
G01 F200 X79.966 Y18.536
G01 F200 X78.009 Y16.578
G01 F200 X77.967 Y16.532
G01 F200 X77.933 Y16.473
G01 F200 X77.912 Y16.408
G01 F200 X77.905 Y16.344
G01 F200 X77.905 Y4.449
G01 F200 X77.793 Y4.399
G01 F200 X77.645 Y4.292
G01 F200 X77.522 Y4.155
G01 F200 X77.430 Y3.997
G01 F200 X77.420 Y3.965
G01 F200 X76.502 Y3.965
G01 F200 X76.492 Y3.997
G01 F200 X76.401 Y4.155
G01 F200 X76.278 Y4.292
G01 F200 X76.130 Y4.399
G01 F200 X75.962 Y4.474
G01 F200 X75.783 Y4.512
G01 F200 X75.600 Y4.512
G01 F200 X75.420 Y4.474
G01 F200 X75.253 Y4.399
G01 F200 X75.105 Y4.292
G01 F200 X74.982 Y4.155
G01 F200 X74.890 Y3.997
G01 F200 X74.834 Y3.822
G01 F200 X74.815 Y3.640
G01 F200 X74.834 Y3.458
G01 F200 X74.886 Y3.296
G01 F200 X73.527 Y1.937
G01 F200 X53.987 Y1.937
G01 F200 X46.729 Y9.196
G01 F200 X46.675 Y9.235
G01 F200 X46.613 Y9.262
G01 F200 X46.546 Y9.277
G01 F200 X41.766 Y9.277
G01 F200 X38.272 Y12.770
G01 F200 X38.219 Y12.809
G01 F200 X38.156 Y12.836
G01 F200 X38.090 Y12.851
G01 F200 X37.106 Y12.851
G01 F200 X37.039 Y12.836
G01 F200 X36.977 Y12.809
G01 F200 X36.923 Y12.770
G01 F200 X36.154 Y12.000
G01 F200 X36.112 Y11.954
G01 F200 X36.078 Y11.895
G01 F200 X36.057 Y11.830
G01 F200 X36.050 Y11.766
G01 F200 X36.050 Y6.505
G01 F200 X33.283 Y6.505
G01 F200 X33.278 Y6.521
G01 F200 X33.190 Y6.673
G01 F200 X33.073 Y6.803
G01 F200 X32.931 Y6.906
G01 F200 X32.770 Y6.978
G01 F200 X32.599 Y7.014
G01 F200 X32.424 Y7.014
G01 F200 X32.252 Y6.978
G01 F200 X32.199 Y6.954
G01 F200 X31.593 Y7.559
G01 F200 X31.593 Y17.081
G01 F200 X31.797 Y17.285
G01 F200 X34.292 Y17.285
G01 F200 X34.296 Y17.274
G01 F200 X34.383 Y17.124
G01 F200 X34.498 Y16.996
G01 F200 X34.638 Y16.894
G01 F200 X34.796 Y16.824
G01 F200 X34.965 Y16.788
G01 F200 X35.138 Y16.788
G01 F200 X35.307 Y16.824
G01 F200 X35.465 Y16.894
G01 F200 X35.605 Y16.996
G01 F200 X35.720 Y17.124
G01 F200 X35.806 Y17.274
G01 F200 X35.860 Y17.438
G01 F200 X35.878 Y17.610
G01 F200 X35.860 Y17.782
G01 F200 X35.806 Y17.946
G01 F200 X35.720 Y18.096
G01 F200 X35.605 Y18.224
G01 F200 X35.465 Y18.326
G01 F200 X35.307 Y18.396
G01 F200 X35.138 Y18.432
G01 F200 X34.965 Y18.432
G01 F200 X34.796 Y18.396
G01 F200 X34.638 Y18.326
G01 F200 X34.498 Y18.224
G01 F200 X34.383 Y18.096
G01 F200 X34.296 Y17.946
G01 F200 X34.292 Y17.935
G01 F200 X31.988 Y17.935
G01 F200 X31.988 Y18.066
G01 F200 X31.981 Y18.130
G01 F200 X31.960 Y18.195
G01 F200 X31.926 Y18.254
G01 F200 X31.884 Y18.300
G01 F200 X28.520 Y21.664
G01 F200 X28.466 Y21.703
G01 F200 X28.404 Y21.731
G01 F200 X28.337 Y21.745
G01 F200 X17.948 Y21.745
G01 F200 X17.948 Y21.824
G01 F200 X17.933 Y21.961
G01 F200 X17.890 Y22.095
G01 F200 X17.819 Y22.218
G01 F200 X17.724 Y22.323
G01 F200 X17.610 Y22.406
G01 F200 X17.480 Y22.464
G01 F200 X17.342 Y22.493
G01 F200 X17.201 Y22.493
G01 F200 X17.062 Y22.464
G01 F200 X16.933 Y22.406
G01 F200 X16.819 Y22.323
G01 F200 X16.724 Y22.218
G01 F200 X16.653 Y22.095
G01 F200 X16.609 Y21.961
G01 F200 X16.595 Y21.824
G01 F200 X16.595 Y21.016
G01 F200 X16.609 Y20.879
G01 F200 X16.653 Y20.745
G01 F200 X16.724 Y20.622
G01 F200 X16.819 Y20.517
G01 F200 X16.933 Y20.434
G01 F200 X17.062 Y20.376
G01 F200 X17.201 Y20.347
G01 F200 X17.342 Y20.347
G01 F200 X17.480 Y20.376
G01 F200 X17.610 Y20.434
G01 F200 X17.724 Y20.517
G01 F200 X17.819 Y20.622
G01 F200 X17.890 Y20.745
G01 F200 X17.933 Y20.879
G01 F200 X17.948 Y21.016
G01 F200 X17.948 Y21.095
G01 F200 X28.167 Y21.095
G01 F200 X31.335 Y17.927
G01 F200 X31.335 Y17.745
G01 F200 X31.044 Y17.454
G01 F200 X31.002 Y17.408
G01 F200 X30.968 Y17.348
G01 F200 X30.947 Y17.283
G01 F200 X30.940 Y17.220
G01 F200 X30.940 Y7.421
G01 F200 X30.947 Y7.357
G01 F200 X30.968 Y7.292
G01 F200 X31.002 Y7.233
G01 F200 X31.043 Y7.187
G01 F200 X31.729 Y6.470
G01 F200 X31.691 Y6.354
G01 F200 X31.673 Y6.180
G01 F200 X31.691 Y6.006
G01 F200 X31.745 Y5.839
G01 F200 X31.833 Y5.687
G01 F200 X31.950 Y5.557
G01 F200 X32.092 Y5.454
G01 F200 X32.252 Y5.382
G01 F200 X32.424 Y5.346
G01 F200 X32.599 Y5.346
G01 F200 X32.770 Y5.382
G01 F200 X32.931 Y5.454
G01 F200 X33.073 Y5.557
G01 F200 X33.190 Y5.687
G01 F200 X33.278 Y5.839
G01 F200 X33.283 Y5.855
G01 F200 X45.710 Y5.855
G01 F200 X45.715 Y5.839
G01 F200 X45.803 Y5.687
G01 F200 X45.920 Y5.557
G01 F200 X46.062 Y5.454
G01 F200 X46.222 Y5.382
G01 F200 X46.394 Y5.346
G01 F200 X46.569 Y5.346
G01 F200 X46.741 Y5.382
G01 F200 X46.901 Y5.454
G01 F200 X47.043 Y5.557
G01 F200 X47.160 Y5.687
G01 F200 X47.248 Y5.839
G01 F200 X47.302 Y6.006
G01 F200 X47.320 Y6.180
G01 F200 X47.302 Y6.354
G01 F200 X47.248 Y6.521
G01 F200 X47.160 Y6.673
G01 F200 X47.043 Y6.803
G01 F200 X46.901 Y6.906
G01 F200 X46.741 Y6.978
G01 F200 X46.569 Y7.014
G01 F200 X46.394 Y7.014
G01 F200 X46.222 Y6.978
G01 F200 X46.062 Y6.906
G01 F200 X45.920 Y6.803
G01 F200 X45.803 Y6.673
G01 F200 X45.715 Y6.521
G01 F200 X45.710 Y6.505
G01 F200 X36.703 Y6.505
G01 F200 X36.703 Y11.627
G01 F200 X37.276 Y12.201
G01 F200 X37.919 Y12.201
G01 F200 X41.412 Y8.708
G01 F200 X41.466 Y8.669
G01 F200 X41.528 Y8.641
G01 F200 X41.595 Y8.627
G01 F200 X46.375 Y8.627
G01 F200 X53.634 Y1.368
G01 F200 X53.688 Y1.329
G01 F200 X53.750 Y1.302
G01 F200 X53.817 Y1.287
G01 F200 X73.698 Y1.287
G01 F200 X73.764 Y1.302
G01 F200 X73.827 Y1.329
G01 F200 X73.880 Y1.368
G01 F200 X75.350 Y2.838
G01 F200 X75.420 Y2.806
G01 F200 X75.600 Y2.768
G01 F200 X75.783 Y2.768
G01 F200 X75.962 Y2.806
G01 F200 X76.130 Y2.881
G01 F200 X76.278 Y2.989
G01 F200 X76.401 Y3.125
G01 F200 X76.492 Y3.283
G01 F200 X76.502 Y3.315
G01 F200 X77.420 Y3.315
G01 F200 X77.430 Y3.283
G01 F200 X77.522 Y3.125
G01 F200 X77.645 Y2.989
G01 F200 X77.793 Y2.881
G01 F200 X77.960 Y2.806
G01 F200 X78.140 Y2.768
G01 F200 X78.323 Y2.768
G01 F200 X78.502 Y2.806
G01 F200 X78.670 Y2.881
G01 F200 X78.818 Y2.989
G01 F200 X78.941 Y3.125
G01 F200 X79.032 Y3.283
G01 F200 X79.089 Y3.458
G01 F200 X79.108 Y3.640
G01 F200 X79.089 Y3.822
G01 F200 X79.032 Y3.997
G01 F200 X78.941 Y4.155
G01 F200 X78.818 Y4.292
G01 F200 X78.670 Y4.399
G01 F200 X78.558 Y4.449
G01 F200 X78.558 Y16.205
G01 F200 X80.430 Y18.078
G01 F200 X80.500 Y18.046
G01 F200 X80.680 Y18.008
G01 F200 X80.863 Y18.008
G01 F200 X81.042 Y18.046
G01 F200 X81.210 Y18.121
G01 F200 X81.358 Y18.229
G01 F200 X81.481 Y18.365
G01 F200 X81.572 Y18.523
G01 F200 X81.629 Y18.698
G01 F200 X81.648 Y18.880
G01 F200 X81.629 Y19.062
G01 F200 X81.576 Y19.224
G01 F200 X82.206 Y19.854
G01 F200 X82.248 Y19.900
G01 F200 X82.282 Y19.959
G01 F200 X82.303 Y20.024
G01 F200 X82.310 Y20.088
G01 F200 X82.310 Y28.356
G01 F200 X82.303 Y28.420
G01 F200 X82.282 Y28.485
G01 F200 X82.248 Y28.544
G01 F200 X82.206 Y28.590
G01 F200 X81.512 Y29.284
G01 F200 X81.458 Y29.323
G01 F200 X81.396 Y29.351
G01 F200 X81.329 Y29.365
G01 F200 X70.183 Y29.365
G01 F200 X70.116 Y29.351
G01 F200 X70.054 Y29.323
G01 F200 X70.000 Y29.284
G01 F200 X69.901 Y29.185
G01 F200 X65.317 Y29.185
G01 F200 X65.250 Y29.171
G01 F200 X65.188 Y29.143
G01 F200 X65.134 Y29.104
G01 F200 X61.566 Y25.535
G01 F200 X55.337 Y25.535
G01 F200 X55.270 Y25.521
G01 F200 X55.208 Y25.493
G01 F200 X55.153 Y25.453
G01 F200 X55.107 Y25.402
G01 F200 X55.073 Y25.343
G01 F200 X55.052 Y25.278
G01 F200 X55.045 Y25.214
G01 F200 X55.045 Y24.910
G01 F200 X50.525 Y24.910
G01 F200 X49.366 Y26.070
G01 F200 X49.366 Y31.444
G01 F200 X54.257 Y36.335
G01 F200 X54.560 Y36.335
G01 F200 X54.570 Y36.303
G01 F200 X54.662 Y36.145
G01 F200 X54.785 Y36.009
G01 F200 X54.933 Y35.901
G01 F200 X55.100 Y35.826
G01 F200 X55.280 Y35.788
G01 F200 X55.463 Y35.788
G01 F200 X55.642 Y35.826
G01 F200 X55.810 Y35.901
G01 F200 X55.958 Y36.009
G01 F200 X56.081 Y36.145
G01 F200 X56.172 Y36.303
G01 F200 X56.229 Y36.478
G01 F200 X56.248 Y36.660
G01 F200 X56.229 Y36.842
G01 F200 X56.172 Y37.017
G01 F200 X56.081 Y37.175
G01 F200 X55.958 Y37.312
G01 F200 X55.810 Y37.419
G01 F200 X55.642 Y37.494
G01 F200 X55.463 Y37.532
G01 F200 X55.280 Y37.532
G01 F200 X55.100 Y37.494
G01 F200 X54.933 Y37.419
G01 F200 X54.785 Y37.312
G01 F200 X54.662 Y37.175
G01 F200 X54.570 Y37.017
G01 F200 X54.560 Y36.985
G01 F200 X54.257 Y36.985
G01 F200 X47.353 Y43.889
G01 F200 X47.299 Y43.928
G01 F200 X47.237 Y43.956
G01 F200 X47.170 Y43.970
G01 F200 X43.348 Y43.970
G01 F200 X43.348 Y44.049
G01 F200 X43.333 Y44.186
G01 F200 X43.290 Y44.320
G01 F200 X43.219 Y44.443
G01 F200 X43.124 Y44.548
G01 F200 X43.010 Y44.631
G01 F200 X42.998 Y44.636
G01 F200 X42.998 Y45.099
G01 F200 X42.991 Y45.163
G01 F200 X42.970 Y45.228
G01 F200 X42.936 Y45.287
G01 F200 X42.890 Y45.338
G01 F200 X42.835 Y45.378
G01 F200 X42.772 Y45.406
G01 F200 X42.706 Y45.420
G01 F200 X23.157 Y45.420
G00 F3000 Z3.000
G00 F3000 X55.280 Y45.152
G00 F1500 Z0
G01 F200 Z-0.200
G01 F200 X55.100 Y45.114
G01 F200 X54.933 Y45.039
G01 F200 X54.785 Y44.931
G01 F200 X54.662 Y44.795
G01 F200 X54.570 Y44.637
G01 F200 X54.514 Y44.462
G01 F200 X54.495 Y44.280
G01 F200 X54.514 Y44.098
G01 F200 X54.570 Y43.923
G01 F200 X54.662 Y43.765
G01 F200 X54.785 Y43.629
G01 F200 X54.933 Y43.521
G01 F200 X55.100 Y43.446
G01 F200 X55.280 Y43.408
G01 F200 X55.463 Y43.408
G01 F200 X55.642 Y43.446
G01 F200 X55.810 Y43.521
G01 F200 X55.958 Y43.629
G01 F200 X56.081 Y43.765
G01 F200 X56.172 Y43.923
G01 F200 X56.183 Y43.955
G01 F200 X56.295 Y43.955
G01 F200 X56.295 Y43.732
G01 F200 X56.302 Y43.668
G01 F200 X56.323 Y43.603
G01 F200 X56.357 Y43.544
G01 F200 X56.399 Y43.498
G01 F200 X57.211 Y42.686
G01 F200 X57.264 Y42.647
G01 F200 X57.327 Y42.619
G01 F200 X57.394 Y42.605
G01 F200 X63.241 Y42.605
G01 F200 X63.278 Y42.492
G01 F200 X63.390 Y42.297
G01 F200 X63.541 Y42.130
G01 F200 X63.723 Y41.998
G01 F200 X63.929 Y41.906
G01 F200 X64.149 Y41.859
G01 F200 X64.374 Y41.859
G01 F200 X64.594 Y41.906
G01 F200 X64.800 Y41.998
G01 F200 X64.982 Y42.130
G01 F200 X65.132 Y42.297
G01 F200 X65.245 Y42.492
G01 F200 X65.315 Y42.706
G01 F200 X65.338 Y42.930
G01 F200 X65.315 Y43.154
G01 F200 X65.245 Y43.368
G01 F200 X65.132 Y43.563
G01 F200 X64.982 Y43.730
G01 F200 X64.800 Y43.863
G01 F200 X64.594 Y43.954
G01 F200 X64.374 Y44.001
G01 F200 X64.149 Y44.001
G01 F200 X63.929 Y43.954
G01 F200 X63.723 Y43.863
G01 F200 X63.541 Y43.730
G01 F200 X63.390 Y43.563
G01 F200 X63.278 Y43.368
G01 F200 X63.241 Y43.255
G01 F200 X57.564 Y43.255
G01 F200 X56.948 Y43.871
G01 F200 X56.948 Y44.284
G01 F200 X56.941 Y44.348
G01 F200 X56.920 Y44.413
G01 F200 X56.886 Y44.472
G01 F200 X56.840 Y44.523
G01 F200 X56.785 Y44.563
G01 F200 X56.723 Y44.591
G01 F200 X56.656 Y44.605
G01 F200 X56.183 Y44.605
G01 F200 X56.172 Y44.637
G01 F200 X56.081 Y44.795
G01 F200 X55.958 Y44.931
G01 F200 X55.810 Y45.039
G01 F200 X55.642 Y45.114
G01 F200 X55.463 Y45.152
G01 F200 X55.280 Y45.152
G00 F3000 Z3.000
G00 F3000 X57.820 Y45.152
G00 F1500 Z0
G01 F200 Z-0.200
G01 F200 X57.640 Y45.114
G01 F200 X57.473 Y45.039
G01 F200 X57.325 Y44.931
G01 F200 X57.202 Y44.795
G01 F200 X57.110 Y44.637
G01 F200 X57.054 Y44.462
G01 F200 X57.035 Y44.280
G01 F200 X57.054 Y44.098
G01 F200 X57.110 Y43.923
G01 F200 X57.202 Y43.765
G01 F200 X57.325 Y43.629
G01 F200 X57.473 Y43.521
G01 F200 X57.640 Y43.446
G01 F200 X57.820 Y43.408
G01 F200 X58.003 Y43.408
G01 F200 X58.182 Y43.446
G01 F200 X58.350 Y43.521
G01 F200 X58.498 Y43.629
G01 F200 X58.621 Y43.765
G01 F200 X58.712 Y43.923
G01 F200 X58.723 Y43.955
G01 F200 X59.196 Y43.955
G01 F200 X59.263 Y43.969
G01 F200 X59.325 Y43.997
G01 F200 X59.379 Y44.036
G01 F200 X59.473 Y44.131
G01 F200 X67.600 Y44.131
G01 F200 X68.309 Y43.422
G01 F200 X68.278 Y43.368
G01 F200 X68.208 Y43.154
G01 F200 X68.185 Y42.930
G01 F200 X68.208 Y42.706
G01 F200 X68.278 Y42.492
G01 F200 X68.390 Y42.297
G01 F200 X68.541 Y42.130
G01 F200 X68.723 Y41.998
G01 F200 X68.929 Y41.906
G01 F200 X69.149 Y41.859
G01 F200 X69.374 Y41.859
G01 F200 X69.594 Y41.906
G01 F200 X69.800 Y41.998
G01 F200 X69.982 Y42.130
G01 F200 X70.132 Y42.297
G01 F200 X70.245 Y42.492
G01 F200 X70.315 Y42.706
G01 F200 X70.338 Y42.930
G01 F200 X70.315 Y43.154
G01 F200 X70.245 Y43.368
G01 F200 X70.132 Y43.563
G01 F200 X69.982 Y43.730
G01 F200 X69.800 Y43.863
G01 F200 X69.594 Y43.954
G01 F200 X69.374 Y44.001
G01 F200 X69.149 Y44.001
G01 F200 X68.928 Y43.954
G01 F200 X68.770 Y43.882
G01 F200 X67.953 Y44.699
G01 F200 X67.899 Y44.738
G01 F200 X67.837 Y44.766
G01 F200 X67.770 Y44.780
G01 F200 X59.303 Y44.780
G01 F200 X59.236 Y44.766
G01 F200 X59.174 Y44.738
G01 F200 X59.120 Y44.699
G01 F200 X59.026 Y44.605
G01 F200 X58.723 Y44.605
G01 F200 X58.712 Y44.637
G01 F200 X58.621 Y44.795
G01 F200 X58.498 Y44.931
G01 F200 X58.350 Y45.039
G01 F200 X58.182 Y45.114
G01 F200 X58.003 Y45.152
G01 F200 X57.820 Y45.152
G00 F3000 Z3.000
G00 F3000 X37.521 Y44.718
G00 F1500 Z0
G01 F200 Z-0.200
G01 F200 X37.382 Y44.689
G01 F200 X37.253 Y44.631
G01 F200 X37.139 Y44.548
G01 F200 X37.044 Y44.443
G01 F200 X36.973 Y44.320
G01 F200 X36.929 Y44.186
G01 F200 X36.915 Y44.049
G01 F200 X36.915 Y43.241
G01 F200 X36.929 Y43.104
G01 F200 X36.973 Y42.970
G01 F200 X37.044 Y42.847
G01 F200 X37.139 Y42.742
G01 F200 X37.253 Y42.659
G01 F200 X37.265 Y42.654
G01 F200 X37.265 Y39.335
G01 F200 X34.829 Y36.898
G01 F200 X34.787 Y36.852
G01 F200 X34.753 Y36.793
G01 F200 X34.732 Y36.728
G01 F200 X34.725 Y36.664
G01 F200 X34.725 Y34.294
G01 F200 X34.613 Y34.244
G01 F200 X34.465 Y34.137
G01 F200 X34.342 Y34.000
G01 F200 X34.250 Y33.842
G01 F200 X34.194 Y33.667
G01 F200 X34.175 Y33.485
G01 F200 X34.194 Y33.303
G01 F200 X34.250 Y33.128
G01 F200 X34.342 Y32.970
G01 F200 X34.465 Y32.834
G01 F200 X34.613 Y32.726
G01 F200 X34.780 Y32.651
G01 F200 X34.960 Y32.613
G01 F200 X35.143 Y32.613
G01 F200 X35.322 Y32.651
G01 F200 X35.490 Y32.726
G01 F200 X35.638 Y32.834
G01 F200 X35.761 Y32.970
G01 F200 X35.852 Y33.128
G01 F200 X35.909 Y33.303
G01 F200 X35.928 Y33.485
G01 F200 X35.909 Y33.667
G01 F200 X35.852 Y33.842
G01 F200 X35.761 Y34.000
G01 F200 X35.638 Y34.137
G01 F200 X35.490 Y34.244
G01 F200 X35.378 Y34.294
G01 F200 X35.378 Y36.525
G01 F200 X37.814 Y38.962
G01 F200 X37.856 Y39.008
G01 F200 X37.890 Y39.067
G01 F200 X37.911 Y39.132
G01 F200 X37.918 Y39.196
G01 F200 X37.918 Y42.654
G01 F200 X37.930 Y42.659
G01 F200 X38.044 Y42.742
G01 F200 X38.139 Y42.847
G01 F200 X38.209 Y42.970
G01 F200 X38.253 Y43.104
G01 F200 X38.268 Y43.241
G01 F200 X38.268 Y44.049
G01 F200 X38.253 Y44.186
G01 F200 X38.209 Y44.320
G01 F200 X38.139 Y44.443
G01 F200 X38.044 Y44.548
G01 F200 X37.930 Y44.631
G01 F200 X37.800 Y44.689
G01 F200 X37.662 Y44.718
G01 F200 X37.521 Y44.718
G00 F3000 Z3.000
G00 F3000 X34.981 Y44.718
G00 F1500 Z0
G01 F200 Z-0.200
G01 F200 X34.842 Y44.689
G01 F200 X34.713 Y44.631
G01 F200 X34.599 Y44.548
G01 F200 X34.504 Y44.443
G01 F200 X34.433 Y44.320
G01 F200 X34.389 Y44.186
G01 F200 X34.375 Y44.049
G01 F200 X34.375 Y43.241
G01 F200 X34.389 Y43.104
G01 F200 X34.433 Y42.970
G01 F200 X34.504 Y42.847
G01 F200 X34.599 Y42.742
G01 F200 X34.713 Y42.659
G01 F200 X34.725 Y42.654
G01 F200 X34.725 Y42.330
G01 F200 X29.927 Y37.532
G01 F200 X29.880 Y37.532
G01 F200 X29.700 Y37.494
G01 F200 X29.533 Y37.419
G01 F200 X29.385 Y37.312
G01 F200 X29.262 Y37.175
G01 F200 X29.170 Y37.017
G01 F200 X29.114 Y36.842
G01 F200 X29.095 Y36.660
G01 F200 X29.114 Y36.478
G01 F200 X29.170 Y36.303
G01 F200 X29.262 Y36.145
G01 F200 X29.385 Y36.009
G01 F200 X29.533 Y35.901
G01 F200 X29.700 Y35.826
G01 F200 X29.880 Y35.788
G01 F200 X30.063 Y35.788
G01 F200 X30.242 Y35.826
G01 F200 X30.410 Y35.901
G01 F200 X30.558 Y36.009
G01 F200 X30.681 Y36.145
G01 F200 X30.772 Y36.303
G01 F200 X30.829 Y36.478
G01 F200 X30.848 Y36.660
G01 F200 X30.829 Y36.842
G01 F200 X30.772 Y37.017
G01 F200 X30.681 Y37.175
G01 F200 X30.592 Y37.274
G01 F200 X35.274 Y41.956
G01 F200 X35.316 Y42.003
G01 F200 X35.350 Y42.062
G01 F200 X35.371 Y42.127
G01 F200 X35.378 Y42.191
G01 F200 X35.378 Y42.654
G01 F200 X35.390 Y42.659
G01 F200 X35.504 Y42.742
G01 F200 X35.599 Y42.847
G01 F200 X35.669 Y42.970
G01 F200 X35.713 Y43.104
G01 F200 X35.728 Y43.241
G01 F200 X35.728 Y44.049
G01 F200 X35.713 Y44.186
G01 F200 X35.669 Y44.320
G01 F200 X35.599 Y44.443
G01 F200 X35.504 Y44.548
G01 F200 X35.390 Y44.631
G01 F200 X35.260 Y44.689
G01 F200 X35.122 Y44.718
G01 F200 X34.981 Y44.718
G00 F3000 Z3.000
G00 F3000 X40.061 Y44.718
G00 F1500 Z0
G01 F200 Z-0.200
G01 F200 X39.922 Y44.689
G01 F200 X39.793 Y44.631
G01 F200 X39.678 Y44.548
G01 F200 X39.584 Y44.443
G01 F200 X39.513 Y44.320
G01 F200 X39.469 Y44.186
G01 F200 X39.455 Y44.049
G01 F200 X39.455 Y43.241
G01 F200 X39.469 Y43.104
G01 F200 X39.513 Y42.970
G01 F200 X39.584 Y42.847
G01 F200 X39.678 Y42.742
G01 F200 X39.793 Y42.659
G01 F200 X39.805 Y42.654
G01 F200 X39.805 Y40.585
G01 F200 X39.274 Y40.054
G01 F200 X39.232 Y40.007
G01 F200 X39.198 Y39.948
G01 F200 X39.177 Y39.883
G01 F200 X39.170 Y39.819
G01 F200 X39.170 Y39.441
G01 F200 X38.620 Y39.441
G01 F200 X38.620 Y37.689
G01 F200 X40.373 Y37.689
G01 F200 X40.373 Y39.441
G01 F200 X39.823 Y39.441
G01 F200 X39.823 Y39.681
G01 F200 X40.354 Y40.212
G01 F200 X40.396 Y40.258
G01 F200 X40.430 Y40.317
G01 F200 X40.451 Y40.382
G01 F200 X40.458 Y40.446
G01 F200 X40.458 Y42.654
G01 F200 X40.470 Y42.659
G01 F200 X40.584 Y42.742
G01 F200 X40.679 Y42.847
G01 F200 X40.750 Y42.970
G01 F200 X40.793 Y43.104
G01 F200 X40.808 Y43.241
G01 F200 X40.808 Y44.049
G01 F200 X40.793 Y44.186
G01 F200 X40.750 Y44.320
G01 F200 X40.679 Y44.443
G01 F200 X40.584 Y44.548
G01 F200 X40.470 Y44.631
G01 F200 X40.340 Y44.689
G01 F200 X40.202 Y44.718
G01 F200 X40.061 Y44.718
G00 F3000 Z3.000
G00 F3000 X75.604 Y43.844
G00 F1500 Z0
G01 F200 Z-0.200
G01 F200 X75.432 Y43.808
G01 F200 X75.272 Y43.736
G01 F200 X75.130 Y43.633
G01 F200 X75.013 Y43.503
G01 F200 X74.925 Y43.351
G01 F200 X74.871 Y43.184
G01 F200 X74.853 Y43.010
G01 F200 X74.871 Y42.836
G01 F200 X74.925 Y42.669
G01 F200 X75.013 Y42.517
G01 F200 X75.130 Y42.387
G01 F200 X75.272 Y42.284
G01 F200 X75.432 Y42.212
G01 F200 X75.604 Y42.176
G01 F200 X75.779 Y42.176
G01 F200 X75.951 Y42.212
G01 F200 X76.111 Y42.284
G01 F200 X76.252 Y42.387
G01 F200 X76.370 Y42.517
G01 F200 X76.458 Y42.669
G01 F200 X76.512 Y42.836
G01 F200 X76.530 Y43.010
G01 F200 X76.512 Y43.184
G01 F200 X76.458 Y43.351
G01 F200 X76.370 Y43.503
G01 F200 X76.252 Y43.633
G01 F200 X76.111 Y43.736
G01 F200 X75.951 Y43.808
G01 F200 X75.779 Y43.844
G01 F200 X75.604 Y43.844
G00 F3000 Z3.000
G00 F3000 X80.684 Y41.304
G00 F1500 Z0
G01 F200 Z-0.200
G01 F200 X80.512 Y41.268
G01 F200 X80.352 Y41.196
G01 F200 X80.210 Y41.093
G01 F200 X80.093 Y40.963
G01 F200 X80.005 Y40.811
G01 F200 X80.000 Y40.795
G01 F200 X66.767 Y40.795
G01 F200 X66.700 Y40.781
G01 F200 X66.638 Y40.753
G01 F200 X66.584 Y40.714
G01 F200 X64.745 Y38.887
G01 F200 X64.594 Y38.954
G01 F200 X64.374 Y39.001
G01 F200 X64.149 Y39.001
G01 F200 X63.929 Y38.954
G01 F200 X63.723 Y38.863
G01 F200 X63.541 Y38.730
G01 F200 X63.390 Y38.563
G01 F200 X63.278 Y38.368
G01 F200 X63.208 Y38.154
G01 F200 X63.185 Y37.930
G01 F200 X63.208 Y37.706
G01 F200 X63.278 Y37.492
G01 F200 X63.390 Y37.297
G01 F200 X63.541 Y37.130
G01 F200 X63.723 Y36.998
G01 F200 X63.929 Y36.906
G01 F200 X64.149 Y36.859
G01 F200 X64.374 Y36.859
G01 F200 X64.594 Y36.906
G01 F200 X64.800 Y36.998
G01 F200 X64.982 Y37.130
G01 F200 X65.132 Y37.297
G01 F200 X65.245 Y37.492
G01 F200 X65.315 Y37.706
G01 F200 X65.338 Y37.930
G01 F200 X65.315 Y38.154
G01 F200 X65.245 Y38.368
G01 F200 X65.214 Y38.422
G01 F200 X66.937 Y40.145
G01 F200 X80.000 Y40.145
G01 F200 X80.005 Y40.129
G01 F200 X80.093 Y39.977
G01 F200 X80.210 Y39.847
G01 F200 X80.352 Y39.744
G01 F200 X80.512 Y39.672
G01 F200 X80.684 Y39.636
G01 F200 X80.859 Y39.636
G01 F200 X81.031 Y39.672
G01 F200 X81.191 Y39.744
G01 F200 X81.333 Y39.847
G01 F200 X81.450 Y39.977
G01 F200 X81.538 Y40.129
G01 F200 X81.592 Y40.296
G01 F200 X81.610 Y40.470
G01 F200 X81.592 Y40.644
G01 F200 X81.538 Y40.811
G01 F200 X81.450 Y40.963
G01 F200 X81.333 Y41.093
G01 F200 X81.191 Y41.196
G01 F200 X81.031 Y41.268
G01 F200 X80.859 Y41.304
G01 F200 X80.684 Y41.304
G00 F3000 Z3.000
G00 F3000 X46.875 Y39.441
G00 F1500 Z0
G01 F200 Z-0.200
G01 F200 X46.875 Y38.890
G01 F200 X44.753 Y38.890
G01 F200 X44.742 Y38.922
G01 F200 X44.651 Y39.080
G01 F200 X44.528 Y39.217
G01 F200 X44.380 Y39.324
G01 F200 X44.212 Y39.399
G01 F200 X44.033 Y39.437
G01 F200 X43.850 Y39.437
G01 F200 X43.670 Y39.399
G01 F200 X43.503 Y39.324
G01 F200 X43.355 Y39.217
G01 F200 X43.232 Y39.080
G01 F200 X43.140 Y38.922
G01 F200 X43.084 Y38.747
G01 F200 X43.065 Y38.565
G01 F200 X43.084 Y38.383
G01 F200 X43.140 Y38.208
G01 F200 X43.232 Y38.050
G01 F200 X43.355 Y37.913
G01 F200 X43.503 Y37.806
G01 F200 X43.670 Y37.731
G01 F200 X43.850 Y37.693
G01 F200 X44.033 Y37.693
G01 F200 X44.212 Y37.731
G01 F200 X44.380 Y37.806
G01 F200 X44.528 Y37.913
G01 F200 X44.651 Y38.050
G01 F200 X44.742 Y38.208
G01 F200 X44.753 Y38.240
G01 F200 X46.875 Y38.240
G01 F200 X46.875 Y37.689
G01 F200 X48.628 Y37.689
G01 F200 X48.628 Y39.441
G01 F200 X46.875 Y39.441
G00 F3000 Z3.000
G00 F3000 X69.149 Y39.001
G00 F1500 Z0
G01 F200 Z-0.200
G01 F200 X68.929 Y38.954
G01 F200 X68.723 Y38.863
G01 F200 X68.541 Y38.730
G01 F200 X68.390 Y38.563
G01 F200 X68.278 Y38.368
G01 F200 X68.208 Y38.154
G01 F200 X68.185 Y37.930
G01 F200 X68.208 Y37.706
G01 F200 X68.278 Y37.492
G01 F200 X68.390 Y37.297
G01 F200 X68.541 Y37.130
G01 F200 X68.723 Y36.998
G01 F200 X68.929 Y36.906
G01 F200 X69.149 Y36.859
G01 F200 X69.374 Y36.859
G01 F200 X69.594 Y36.906
G01 F200 X69.752 Y36.978
G01 F200 X71.584 Y35.146
G01 F200 X71.638 Y35.107
G01 F200 X71.700 Y35.079
G01 F200 X71.767 Y35.065
G01 F200 X74.920 Y35.065
G01 F200 X74.925 Y35.049
G01 F200 X75.013 Y34.897
G01 F200 X75.130 Y34.767
G01 F200 X75.272 Y34.664
G01 F200 X75.432 Y34.592
G01 F200 X75.604 Y34.556
G01 F200 X75.779 Y34.556
G01 F200 X75.951 Y34.592
G01 F200 X76.111 Y34.664
G01 F200 X76.252 Y34.767
G01 F200 X76.370 Y34.897
G01 F200 X76.458 Y35.049
G01 F200 X76.512 Y35.216
G01 F200 X76.530 Y35.390
G01 F200 X76.512 Y35.564
G01 F200 X76.458 Y35.731
G01 F200 X76.370 Y35.883
G01 F200 X76.252 Y36.013
G01 F200 X76.111 Y36.116
G01 F200 X75.951 Y36.188
G01 F200 X75.779 Y36.224
G01 F200 X75.604 Y36.224
G01 F200 X75.432 Y36.188
G01 F200 X75.272 Y36.116
G01 F200 X75.130 Y36.013
G01 F200 X75.013 Y35.883
G01 F200 X74.925 Y35.731
G01 F200 X74.920 Y35.715
G01 F200 X71.937 Y35.715
G01 F200 X70.214 Y37.438
G01 F200 X70.245 Y37.492
G01 F200 X70.315 Y37.706
G01 F200 X70.338 Y37.930
G01 F200 X70.315 Y38.154
G01 F200 X70.245 Y38.368
G01 F200 X70.132 Y38.563
G01 F200 X69.982 Y38.730
G01 F200 X69.800 Y38.863
G01 F200 X69.594 Y38.954
G01 F200 X69.374 Y39.001
G01 F200 X69.149 Y39.001
G00 F3000 Z3.000
G00 F3000 X75.604 Y38.764
G00 F1500 Z0
G01 F200 Z-0.200
G01 F200 X75.432 Y38.728
G01 F200 X75.272 Y38.656
G01 F200 X75.130 Y38.553
G01 F200 X75.013 Y38.423
G01 F200 X74.925 Y38.271
G01 F200 X74.871 Y38.104
G01 F200 X74.853 Y37.930
G01 F200 X74.871 Y37.756
G01 F200 X74.925 Y37.589
G01 F200 X75.013 Y37.437
G01 F200 X75.130 Y37.307
G01 F200 X75.272 Y37.204
G01 F200 X75.432 Y37.132
G01 F200 X75.604 Y37.096
G01 F200 X75.779 Y37.096
G01 F200 X75.951 Y37.132
G01 F200 X76.111 Y37.204
G01 F200 X76.252 Y37.307
G01 F200 X76.370 Y37.437
G01 F200 X76.458 Y37.589
G01 F200 X76.512 Y37.756
G01 F200 X76.530 Y37.930
G01 F200 X76.512 Y38.104
G01 F200 X76.458 Y38.271
G01 F200 X76.370 Y38.423
G01 F200 X76.252 Y38.553
G01 F200 X76.111 Y38.656
G01 F200 X75.951 Y38.728
G01 F200 X75.779 Y38.764
G01 F200 X75.604 Y38.764
G00 F3000 Z3.000
G00 F3000 X57.035 Y37.536
G00 F1500 Z0
G01 F200 Z-0.200
G01 F200 X57.035 Y35.784
G01 F200 X57.585 Y35.784
G01 F200 X57.585 Y35.735
G01 F200 X57.330 Y35.735
G01 F200 X57.263 Y35.720
G01 F200 X57.201 Y35.693
G01 F200 X57.147 Y35.654
G01 F200 X50.069 Y28.575
G01 F200 X50.027 Y28.529
G01 F200 X49.993 Y28.470
G01 F200 X49.972 Y28.405
G01 F200 X49.965 Y28.341
G01 F200 X49.965 Y27.309
G01 F200 X49.853 Y27.259
G01 F200 X49.705 Y27.152
G01 F200 X49.582 Y27.015
G01 F200 X49.490 Y26.857
G01 F200 X49.434 Y26.682
G01 F200 X49.415 Y26.500
G01 F200 X49.434 Y26.318
G01 F200 X49.490 Y26.143
G01 F200 X49.582 Y25.985
G01 F200 X49.705 Y25.849
G01 F200 X49.853 Y25.741
G01 F200 X50.020 Y25.666
G01 F200 X50.200 Y25.628
G01 F200 X50.383 Y25.628
G01 F200 X50.562 Y25.666
G01 F200 X50.730 Y25.741
G01 F200 X50.878 Y25.849
G01 F200 X51.001 Y25.985
G01 F200 X51.092 Y26.143
G01 F200 X51.149 Y26.318
G01 F200 X51.168 Y26.500
G01 F200 X51.149 Y26.682
G01 F200 X51.092 Y26.857
G01 F200 X51.001 Y27.015
G01 F200 X50.878 Y27.152
G01 F200 X50.730 Y27.259
G01 F200 X50.618 Y27.309
G01 F200 X50.618 Y28.202
G01 F200 X57.500 Y35.085
G01 F200 X57.946 Y35.085
G01 F200 X58.012 Y35.099
G01 F200 X58.075 Y35.127
G01 F200 X58.130 Y35.167
G01 F200 X58.176 Y35.218
G01 F200 X58.210 Y35.277
G01 F200 X58.231 Y35.342
G01 F200 X58.238 Y35.406
G01 F200 X58.238 Y35.784
G01 F200 X58.788 Y35.784
G01 F200 X58.788 Y37.536
G01 F200 X57.035 Y37.536
G00 F3000 Z3.000
G00 F3000 X75.604 Y33.684
G00 F1500 Z0
G01 F200 Z-0.200
G01 F200 X75.432 Y33.648
G01 F200 X75.272 Y33.576
G01 F200 X75.130 Y33.473
G01 F200 X75.013 Y33.343
G01 F200 X74.925 Y33.191
G01 F200 X74.871 Y33.024
G01 F200 X74.853 Y32.850
G01 F200 X74.871 Y32.676
G01 F200 X74.925 Y32.509
G01 F200 X75.013 Y32.357
G01 F200 X75.130 Y32.227
G01 F200 X75.272 Y32.124
G01 F200 X75.432 Y32.052
G01 F200 X75.604 Y32.016
G01 F200 X75.779 Y32.016
G01 F200 X75.951 Y32.052
G01 F200 X76.111 Y32.124
G01 F200 X76.252 Y32.227
G01 F200 X76.370 Y32.357
G01 F200 X76.458 Y32.509
G01 F200 X76.512 Y32.676
G01 F200 X76.530 Y32.850
G01 F200 X76.512 Y33.024
G01 F200 X76.458 Y33.191
G01 F200 X76.370 Y33.343
G01 F200 X76.252 Y33.473
G01 F200 X76.111 Y33.576
G01 F200 X75.951 Y33.648
G01 F200 X75.779 Y33.684
G01 F200 X75.604 Y33.684
G00 F3000 Z3.000
G00 F3000 X55.280 Y32.452
G00 F1500 Z0
G01 F200 Z-0.200
G01 F200 X55.100 Y32.414
G01 F200 X54.933 Y32.339
G01 F200 X54.785 Y32.232
G01 F200 X54.662 Y32.095
G01 F200 X54.570 Y31.937
G01 F200 X54.514 Y31.762
G01 F200 X54.495 Y31.580
G01 F200 X54.514 Y31.398
G01 F200 X54.570 Y31.223
G01 F200 X54.662 Y31.065
G01 F200 X54.785 Y30.929
G01 F200 X54.933 Y30.821
G01 F200 X55.100 Y30.746
G01 F200 X55.280 Y30.708
G01 F200 X55.463 Y30.708
G01 F200 X55.642 Y30.746
G01 F200 X55.810 Y30.821
G01 F200 X55.958 Y30.929
G01 F200 X56.081 Y31.065
G01 F200 X56.172 Y31.223
G01 F200 X56.183 Y31.255
G01 F200 X56.295 Y31.255
G01 F200 X56.295 Y31.032
G01 F200 X56.302 Y30.968
G01 F200 X56.323 Y30.903
G01 F200 X56.357 Y30.844
G01 F200 X56.399 Y30.798
G01 F200 X57.131 Y30.066
G01 F200 X57.184 Y30.027
G01 F200 X57.247 Y29.999
G01 F200 X57.314 Y29.985
G01 F200 X63.321 Y29.985
G01 F200 X63.358 Y29.872
G01 F200 X63.470 Y29.677
G01 F200 X63.621 Y29.510
G01 F200 X63.803 Y29.378
G01 F200 X64.009 Y29.286
G01 F200 X64.229 Y29.239
G01 F200 X64.454 Y29.239
G01 F200 X64.674 Y29.286
G01 F200 X64.880 Y29.378
G01 F200 X65.062 Y29.510
G01 F200 X65.212 Y29.677
G01 F200 X65.325 Y29.872
G01 F200 X65.395 Y30.086
G01 F200 X65.418 Y30.310
G01 F200 X65.395 Y30.534
G01 F200 X65.325 Y30.748
G01 F200 X65.212 Y30.943
G01 F200 X65.062 Y31.110
G01 F200 X64.880 Y31.243
G01 F200 X64.674 Y31.334
G01 F200 X64.454 Y31.381
G01 F200 X64.229 Y31.381
G01 F200 X64.009 Y31.334
G01 F200 X63.803 Y31.243
G01 F200 X63.621 Y31.110
G01 F200 X63.470 Y30.943
G01 F200 X63.358 Y30.748
G01 F200 X63.321 Y30.635
G01 F200 X57.484 Y30.635
G01 F200 X56.948 Y31.171
G01 F200 X56.948 Y31.584
G01 F200 X56.941 Y31.648
G01 F200 X56.920 Y31.713
G01 F200 X56.886 Y31.772
G01 F200 X56.840 Y31.823
G01 F200 X56.785 Y31.863
G01 F200 X56.723 Y31.891
G01 F200 X56.656 Y31.905
G01 F200 X56.183 Y31.905
G01 F200 X56.172 Y31.937
G01 F200 X56.081 Y32.095
G01 F200 X55.958 Y32.232
G01 F200 X55.810 Y32.339
G01 F200 X55.642 Y32.414
G01 F200 X55.463 Y32.452
G01 F200 X55.280 Y32.452
G00 F3000 Z3.000
G00 F3000 X57.820 Y32.452
G00 F1500 Z0
G01 F200 Z-0.200
G01 F200 X57.640 Y32.414
G01 F200 X57.473 Y32.339
G01 F200 X57.325 Y32.232
G01 F200 X57.202 Y32.095
G01 F200 X57.110 Y31.937
G01 F200 X57.054 Y31.762
G01 F200 X57.035 Y31.580
G01 F200 X57.054 Y31.398
G01 F200 X57.110 Y31.223
G01 F200 X57.202 Y31.065
G01 F200 X57.325 Y30.929
G01 F200 X57.473 Y30.821
G01 F200 X57.640 Y30.746
G01 F200 X57.820 Y30.708
G01 F200 X58.003 Y30.708
G01 F200 X58.182 Y30.746
G01 F200 X58.350 Y30.821
G01 F200 X58.498 Y30.929
G01 F200 X58.621 Y31.065
G01 F200 X58.712 Y31.223
G01 F200 X58.723 Y31.255
G01 F200 X59.196 Y31.255
G01 F200 X59.263 Y31.269
G01 F200 X59.325 Y31.297
G01 F200 X59.379 Y31.336
G01 F200 X59.482 Y31.440
G01 F200 X67.751 Y31.440
G01 F200 X68.389 Y30.802
G01 F200 X68.358 Y30.748
G01 F200 X68.288 Y30.534
G01 F200 X68.265 Y30.310
G01 F200 X68.288 Y30.086
G01 F200 X68.358 Y29.872
G01 F200 X68.470 Y29.677
G01 F200 X68.621 Y29.510
G01 F200 X68.803 Y29.378
G01 F200 X69.009 Y29.286
G01 F200 X69.229 Y29.239
G01 F200 X69.454 Y29.239
G01 F200 X69.674 Y29.286
G01 F200 X69.880 Y29.378
G01 F200 X70.062 Y29.510
G01 F200 X70.212 Y29.677
G01 F200 X70.325 Y29.872
G01 F200 X70.395 Y30.086
G01 F200 X70.418 Y30.310
G01 F200 X70.395 Y30.534
G01 F200 X70.325 Y30.748
G01 F200 X70.212 Y30.943
G01 F200 X70.062 Y31.110
G01 F200 X69.880 Y31.243
G01 F200 X69.674 Y31.334
G01 F200 X69.454 Y31.381
G01 F200 X69.229 Y31.381
G01 F200 X69.008 Y31.334
G01 F200 X68.850 Y31.262
G01 F200 X68.104 Y32.008
G01 F200 X68.050 Y32.047
G01 F200 X67.988 Y32.075
G01 F200 X67.921 Y32.089
G01 F200 X59.312 Y32.089
G01 F200 X59.245 Y32.075
G01 F200 X59.183 Y32.047
G01 F200 X59.129 Y32.008
G01 F200 X59.026 Y31.905
G01 F200 X58.723 Y31.905
G01 F200 X58.712 Y31.937
G01 F200 X58.621 Y32.095
G01 F200 X58.498 Y32.232
G01 F200 X58.350 Y32.339
G01 F200 X58.182 Y32.414
G01 F200 X58.003 Y32.452
G01 F200 X57.820 Y32.452
G00 F3000 Z3.000
G00 F3000 X20.990 Y32.452
G00 F1500 Z0
G01 F200 Z-0.200
G01 F200 X20.810 Y32.414
G01 F200 X20.643 Y32.339
G01 F200 X20.495 Y32.232
G01 F200 X20.372 Y32.095
G01 F200 X20.280 Y31.937
G01 F200 X20.224 Y31.762
G01 F200 X20.205 Y31.580
G01 F200 X20.224 Y31.398
G01 F200 X20.280 Y31.223
G01 F200 X20.372 Y31.065
G01 F200 X20.495 Y30.929
G01 F200 X20.643 Y30.821
G01 F200 X20.810 Y30.746
G01 F200 X20.956 Y30.715
G01 F200 X20.956 Y29.566
G01 F200 X8.293 Y29.566
G01 F200 X8.226 Y29.552
G01 F200 X8.164 Y29.524
G01 F200 X8.110 Y29.485
G01 F200 X5.818 Y27.193
G01 F200 X5.776 Y27.146
G01 F200 X5.742 Y27.087
G01 F200 X5.721 Y27.022
G01 F200 X5.714 Y26.958
G01 F200 X5.714 Y20.599
G01 F200 X5.721 Y20.535
G01 F200 X5.742 Y20.470
G01 F200 X5.776 Y20.411
G01 F200 X5.818 Y20.365
G01 F200 X8.183 Y17.999
G01 F200 X8.183 Y15.967
G01 F200 X5.071 Y12.855
G01 F200 X4.511 Y12.855
G01 F200 X4.461 Y12.968
G01 F200 X4.353 Y13.117
G01 F200 X4.217 Y13.239
G01 F200 X4.058 Y13.331
G01 F200 X3.884 Y13.388
G01 F200 X3.705 Y13.406
G01 F200 X2.897 Y13.406
G01 F200 X2.719 Y13.388
G01 F200 X2.545 Y13.331
G01 F200 X2.386 Y13.239
G01 F200 X2.250 Y13.117
G01 F200 X2.142 Y12.968
G01 F200 X2.067 Y12.801
G01 F200 X2.029 Y12.622
G01 F200 X2.029 Y12.438
G01 F200 X2.067 Y12.259
G01 F200 X2.142 Y12.092
G01 F200 X2.250 Y11.943
G01 F200 X2.386 Y11.821
G01 F200 X2.545 Y11.729
G01 F200 X2.719 Y11.672
G01 F200 X2.897 Y11.654
G01 F200 X3.705 Y11.654
G01 F200 X3.884 Y11.672
G01 F200 X4.058 Y11.729
G01 F200 X4.217 Y11.821
G01 F200 X4.353 Y11.943
G01 F200 X4.461 Y12.092
G01 F200 X4.511 Y12.205
G01 F200 X5.241 Y12.205
G01 F200 X5.308 Y12.219
G01 F200 X5.370 Y12.247
G01 F200 X5.424 Y12.286
G01 F200 X8.732 Y15.594
G01 F200 X8.773 Y15.640
G01 F200 X8.808 Y15.699
G01 F200 X8.829 Y15.764
G01 F200 X8.835 Y15.828
G01 F200 X8.835 Y18.138
G01 F200 X8.829 Y18.202
G01 F200 X8.808 Y18.267
G01 F200 X8.773 Y18.326
G01 F200 X8.732 Y18.373
G01 F200 X6.367 Y20.738
G01 F200 X6.367 Y26.820
G01 F200 X8.463 Y28.917
G01 F200 X47.425 Y28.917
G01 F200 X47.425 Y23.414
G01 F200 X47.432 Y23.351
G01 F200 X47.453 Y23.286
G01 F200 X47.487 Y23.226
G01 F200 X47.529 Y23.180
G01 F200 X50.570 Y20.139
G01 F200 X50.624 Y20.100
G01 F200 X50.686 Y20.072
G01 F200 X50.753 Y20.058
G01 F200 X50.821 Y20.058
G01 F200 X50.888 Y20.072
G01 F200 X50.951 Y20.100
G01 F200 X51.004 Y20.139
G01 F200 X52.531 Y21.665
G01 F200 X56.262 Y21.665
G01 F200 X56.329 Y21.679
G01 F200 X56.392 Y21.707
G01 F200 X56.423 Y21.730
G01 F200 X59.216 Y21.730
G01 F200 X59.282 Y21.744
G01 F200 X59.345 Y21.772
G01 F200 X59.398 Y21.811
G01 F200 X60.587 Y23.000
G01 F200 X72.380 Y23.000
G01 F200 X73.862 Y21.518
G01 F200 X73.862 Y20.379
G01 F200 X73.869 Y20.315
G01 F200 X73.890 Y20.250
G01 F200 X73.925 Y20.191
G01 F200 X73.966 Y20.144
G01 F200 X74.886 Y19.224
G01 F200 X74.834 Y19.062
G01 F200 X74.815 Y18.880
G01 F200 X74.834 Y18.698
G01 F200 X74.890 Y18.523
G01 F200 X74.982 Y18.365
G01 F200 X75.105 Y18.229
G01 F200 X75.253 Y18.121
G01 F200 X75.365 Y18.071
G01 F200 X75.365 Y15.205
G01 F200 X73.493 Y13.332
G01 F200 X73.422 Y13.364
G01 F200 X73.243 Y13.402
G01 F200 X73.060 Y13.402
G01 F200 X72.880 Y13.364
G01 F200 X72.713 Y13.289
G01 F200 X72.565 Y13.181
G01 F200 X72.442 Y13.045
G01 F200 X72.350 Y12.887
G01 F200 X72.294 Y12.712
G01 F200 X72.275 Y12.530
G01 F200 X72.294 Y12.348
G01 F200 X72.350 Y12.173
G01 F200 X72.442 Y12.015
G01 F200 X72.565 Y11.879
G01 F200 X72.713 Y11.771
G01 F200 X72.825 Y11.721
G01 F200 X72.825 Y9.529
G01 F200 X72.713 Y9.479
G01 F200 X72.565 Y9.372
G01 F200 X72.442 Y9.235
G01 F200 X72.350 Y9.077
G01 F200 X72.294 Y8.902
G01 F200 X72.275 Y8.720
G01 F200 X72.294 Y8.538
G01 F200 X72.350 Y8.363
G01 F200 X72.442 Y8.205
G01 F200 X72.565 Y8.069
G01 F200 X72.713 Y7.961
G01 F200 X72.880 Y7.886
G01 F200 X73.060 Y7.848
G01 F200 X73.243 Y7.848
G01 F200 X73.422 Y7.886
G01 F200 X73.590 Y7.961
G01 F200 X73.738 Y8.069
G01 F200 X73.861 Y8.205
G01 F200 X73.952 Y8.363
G01 F200 X74.009 Y8.538
G01 F200 X74.028 Y8.720
G01 F200 X74.009 Y8.902
G01 F200 X73.952 Y9.077
G01 F200 X73.861 Y9.235
G01 F200 X73.738 Y9.372
G01 F200 X73.590 Y9.479
G01 F200 X73.478 Y9.529
G01 F200 X73.478 Y11.721
G01 F200 X73.590 Y11.771
G01 F200 X73.738 Y11.879
G01 F200 X73.861 Y12.015
G01 F200 X73.952 Y12.173
G01 F200 X74.009 Y12.348
G01 F200 X74.028 Y12.530
G01 F200 X74.009 Y12.712
G01 F200 X73.956 Y12.874
G01 F200 X75.914 Y14.832
G01 F200 X75.956 Y14.878
G01 F200 X75.990 Y14.937
G01 F200 X76.011 Y15.002
G01 F200 X76.018 Y15.066
G01 F200 X76.018 Y18.071
G01 F200 X76.130 Y18.121
G01 F200 X76.278 Y18.229
G01 F200 X76.401 Y18.365
G01 F200 X76.492 Y18.523
G01 F200 X76.549 Y18.698
G01 F200 X76.568 Y18.880
G01 F200 X76.549 Y19.062
G01 F200 X76.492 Y19.237
G01 F200 X76.401 Y19.395
G01 F200 X76.278 Y19.532
G01 F200 X76.130 Y19.639
G01 F200 X75.962 Y19.714
G01 F200 X75.783 Y19.752
G01 F200 X75.600 Y19.752
G01 F200 X75.420 Y19.714
G01 F200 X75.350 Y19.682
G01 F200 X74.515 Y20.517
G01 F200 X74.515 Y21.657
G01 F200 X74.508 Y21.720
G01 F200 X74.487 Y21.785
G01 F200 X74.453 Y21.845
G01 F200 X74.411 Y21.891
G01 F200 X72.733 Y23.569
G01 F200 X72.680 Y23.608
G01 F200 X72.617 Y23.636
G01 F200 X72.550 Y23.650
G01 F200 X60.417 Y23.650
G01 F200 X60.350 Y23.636
G01 F200 X60.288 Y23.608
G01 F200 X60.234 Y23.569
G01 F200 X59.045 Y22.380
G01 F200 X56.259 Y22.380
G01 F200 X56.192 Y22.366
G01 F200 X56.129 Y22.338
G01 F200 X56.098 Y22.315
G01 F200 X52.361 Y22.315
G01 F200 X52.294 Y22.301
G01 F200 X52.231 Y22.273
G01 F200 X52.178 Y22.234
G01 F200 X50.787 Y20.844
G01 F200 X48.078 Y23.553
G01 F200 X48.078 Y30.136
G01 F200 X48.190 Y30.186
G01 F200 X48.338 Y30.294
G01 F200 X48.461 Y30.430
G01 F200 X48.552 Y30.588
G01 F200 X48.609 Y30.763
G01 F200 X48.628 Y30.945
G01 F200 X48.609 Y31.127
G01 F200 X48.552 Y31.302
G01 F200 X48.461 Y31.460
G01 F200 X48.338 Y31.597
G01 F200 X48.190 Y31.704
G01 F200 X48.022 Y31.779
G01 F200 X47.843 Y31.817
G01 F200 X47.660 Y31.817
G01 F200 X47.480 Y31.779
G01 F200 X47.313 Y31.704
G01 F200 X47.165 Y31.597
G01 F200 X47.042 Y31.460
G01 F200 X46.950 Y31.302
G01 F200 X46.894 Y31.127
G01 F200 X46.875 Y30.945
G01 F200 X46.894 Y30.763
G01 F200 X46.950 Y30.588
G01 F200 X47.042 Y30.430
G01 F200 X47.165 Y30.294
G01 F200 X47.313 Y30.186
G01 F200 X47.425 Y30.136
G01 F200 X47.425 Y29.566
G01 F200 X21.609 Y29.566
G01 F200 X21.609 Y30.886
G01 F200 X21.668 Y30.929
G01 F200 X21.791 Y31.065
G01 F200 X21.882 Y31.223
G01 F200 X21.939 Y31.398
G01 F200 X21.958 Y31.580
G01 F200 X21.939 Y31.762
G01 F200 X21.882 Y31.937
G01 F200 X21.791 Y32.095
G01 F200 X21.668 Y32.232
G01 F200 X21.520 Y32.339
G01 F200 X21.352 Y32.414
G01 F200 X21.173 Y32.452
G01 F200 X20.990 Y32.452
G00 F3000 Z3.000
G00 F3000 X43.065 Y31.821
G00 F1500 Z0
G01 F200 Z-0.200
G01 F200 X43.065 Y31.270
G01 F200 X40.308 Y31.270
G01 F200 X40.297 Y31.302
G01 F200 X40.206 Y31.460
G01 F200 X40.083 Y31.597
G01 F200 X39.935 Y31.704
G01 F200 X39.767 Y31.779
G01 F200 X39.588 Y31.817
G01 F200 X39.405 Y31.817
G01 F200 X39.225 Y31.779
G01 F200 X39.058 Y31.704
G01 F200 X38.910 Y31.597
G01 F200 X38.787 Y31.460
G01 F200 X38.695 Y31.302
G01 F200 X38.639 Y31.127
G01 F200 X38.620 Y30.945
G01 F200 X38.639 Y30.763
G01 F200 X38.695 Y30.588
G01 F200 X38.787 Y30.430
G01 F200 X38.910 Y30.294
G01 F200 X39.058 Y30.186
G01 F200 X39.225 Y30.111
G01 F200 X39.405 Y30.073
G01 F200 X39.588 Y30.073
G01 F200 X39.767 Y30.111
G01 F200 X39.935 Y30.186
G01 F200 X40.083 Y30.294
G01 F200 X40.206 Y30.430
G01 F200 X40.297 Y30.588
G01 F200 X40.308 Y30.620
G01 F200 X43.065 Y30.620
G01 F200 X43.065 Y30.069
G01 F200 X44.818 Y30.069
G01 F200 X44.818 Y31.821
G01 F200 X43.065 Y31.821
G00 F3000 Z3.000
G00 F3000 X75.604 Y31.144
G00 F1500 Z0
G01 F200 Z-0.200
G01 F200 X75.432 Y31.108
G01 F200 X75.272 Y31.036
G01 F200 X75.130 Y30.933
G01 F200 X75.013 Y30.803
G01 F200 X74.925 Y30.651
G01 F200 X74.871 Y30.484
G01 F200 X74.853 Y30.310
G01 F200 X74.871 Y30.136
G01 F200 X74.925 Y29.969
G01 F200 X75.013 Y29.817
G01 F200 X75.130 Y29.687
G01 F200 X75.272 Y29.584
G01 F200 X75.432 Y29.512
G01 F200 X75.604 Y29.476
G01 F200 X75.779 Y29.476
G01 F200 X75.951 Y29.512
G01 F200 X76.111 Y29.584
G01 F200 X76.252 Y29.687
G01 F200 X76.370 Y29.817
G01 F200 X76.458 Y29.969
G01 F200 X76.512 Y30.136
G01 F200 X76.530 Y30.310
G01 F200 X76.512 Y30.484
G01 F200 X76.458 Y30.651
G01 F200 X76.370 Y30.803
G01 F200 X76.252 Y30.933
G01 F200 X76.111 Y31.036
G01 F200 X75.951 Y31.108
G01 F200 X75.779 Y31.144
G01 F200 X75.604 Y31.144
G00 F3000 Z3.000
G00 F3000 X8.566 Y28.849
G00 F1500 Z0
G01 F200 Z-0.200
G01 F200 X8.500 Y28.835
G01 F200 X8.437 Y28.807
G01 F200 X8.383 Y28.768
G01 F200 X6.889 Y27.273
G01 F200 X6.847 Y27.227
G01 F200 X6.813 Y27.168
G01 F200 X6.792 Y27.103
G01 F200 X6.785 Y27.039
G01 F200 X6.785 Y22.411
G01 F200 X6.773 Y22.406
G01 F200 X6.659 Y22.323
G01 F200 X6.564 Y22.218
G01 F200 X6.493 Y22.095
G01 F200 X6.449 Y21.961
G01 F200 X6.435 Y21.824
G01 F200 X6.435 Y21.016
G01 F200 X6.449 Y20.879
G01 F200 X6.493 Y20.745
G01 F200 X6.564 Y20.622
G01 F200 X6.659 Y20.517
G01 F200 X6.773 Y20.434
G01 F200 X6.902 Y20.376
G01 F200 X7.041 Y20.347
G01 F200 X7.182 Y20.347
G01 F200 X7.320 Y20.376
G01 F200 X7.450 Y20.434
G01 F200 X7.564 Y20.517
G01 F200 X7.659 Y20.622
G01 F200 X7.730 Y20.745
G01 F200 X7.773 Y20.879
G01 F200 X7.788 Y21.016
G01 F200 X7.788 Y21.824
G01 F200 X7.773 Y21.961
G01 F200 X7.730 Y22.095
G01 F200 X7.659 Y22.218
G01 F200 X7.564 Y22.323
G01 F200 X7.450 Y22.406
G01 F200 X7.438 Y22.411
G01 F200 X7.438 Y26.900
G01 F200 X8.737 Y28.199
G01 F200 X41.468 Y28.199
G01 F200 X51.031 Y18.636
G01 F200 X51.084 Y18.597
G01 F200 X51.147 Y18.569
G01 F200 X51.214 Y18.555
G01 F200 X54.560 Y18.555
G01 F200 X54.570 Y18.523
G01 F200 X54.662 Y18.365
G01 F200 X54.785 Y18.229
G01 F200 X54.933 Y18.121
G01 F200 X55.100 Y18.046
G01 F200 X55.280 Y18.008
G01 F200 X55.463 Y18.008
G01 F200 X55.642 Y18.046
G01 F200 X55.810 Y18.121
G01 F200 X55.958 Y18.229
G01 F200 X56.081 Y18.365
G01 F200 X56.172 Y18.523
G01 F200 X56.229 Y18.698
G01 F200 X56.248 Y18.880
G01 F200 X56.229 Y19.062
G01 F200 X56.172 Y19.237
G01 F200 X56.081 Y19.395
G01 F200 X55.958 Y19.532
G01 F200 X55.810 Y19.639
G01 F200 X55.642 Y19.714
G01 F200 X55.463 Y19.752
G01 F200 X55.280 Y19.752
G01 F200 X55.100 Y19.714
G01 F200 X54.933 Y19.639
G01 F200 X54.785 Y19.532
G01 F200 X54.662 Y19.395
G01 F200 X54.570 Y19.237
G01 F200 X54.560 Y19.205
G01 F200 X51.384 Y19.205
G01 F200 X41.821 Y28.768
G01 F200 X41.767 Y28.807
G01 F200 X41.705 Y28.835
G01 F200 X41.638 Y28.849
G01 F200 X8.566 Y28.849
G00 F3000 Z3.000
G00 F3000 X80.684 Y28.604
G00 F1500 Z0
G01 F200 Z-0.200
G01 F200 X80.512 Y28.568
G01 F200 X80.352 Y28.496
G01 F200 X80.210 Y28.393
G01 F200 X80.093 Y28.263
G01 F200 X80.005 Y28.111
G01 F200 X80.000 Y28.095
G01 F200 X66.767 Y28.095
G01 F200 X66.700 Y28.081
G01 F200 X66.638 Y28.053
G01 F200 X66.584 Y28.014
G01 F200 X64.825 Y26.267
G01 F200 X64.674 Y26.334
G01 F200 X64.454 Y26.381
G01 F200 X64.229 Y26.381
G01 F200 X64.009 Y26.334
G01 F200 X63.803 Y26.242
G01 F200 X63.621 Y26.110
G01 F200 X63.470 Y25.943
G01 F200 X63.358 Y25.748
G01 F200 X63.288 Y25.534
G01 F200 X63.265 Y25.310
G01 F200 X63.288 Y25.086
G01 F200 X63.358 Y24.872
G01 F200 X63.470 Y24.677
G01 F200 X63.621 Y24.510
G01 F200 X63.803 Y24.378
G01 F200 X64.009 Y24.286
G01 F200 X64.229 Y24.239
G01 F200 X64.454 Y24.239
G01 F200 X64.674 Y24.286
G01 F200 X64.880 Y24.378
G01 F200 X65.062 Y24.510
G01 F200 X65.212 Y24.677
G01 F200 X65.325 Y24.872
G01 F200 X65.395 Y25.086
G01 F200 X65.418 Y25.310
G01 F200 X65.395 Y25.534
G01 F200 X65.325 Y25.748
G01 F200 X65.294 Y25.802
G01 F200 X66.937 Y27.445
G01 F200 X80.000 Y27.445
G01 F200 X80.005 Y27.429
G01 F200 X80.093 Y27.277
G01 F200 X80.210 Y27.147
G01 F200 X80.352 Y27.044
G01 F200 X80.512 Y26.972
G01 F200 X80.684 Y26.936
G01 F200 X80.859 Y26.936
G01 F200 X81.031 Y26.972
G01 F200 X81.191 Y27.044
G01 F200 X81.333 Y27.147
G01 F200 X81.450 Y27.277
G01 F200 X81.538 Y27.429
G01 F200 X81.592 Y27.596
G01 F200 X81.610 Y27.770
G01 F200 X81.592 Y27.944
G01 F200 X81.538 Y28.111
G01 F200 X81.450 Y28.263
G01 F200 X81.333 Y28.393
G01 F200 X81.191 Y28.496
G01 F200 X81.031 Y28.568
G01 F200 X80.859 Y28.604
G01 F200 X80.684 Y28.604
G00 F3000 Z3.000
G00 F3000 X32.481 Y28.119
G00 F1500 Z0
G01 F200 Z-0.200
G01 F200 X32.414 Y28.105
G01 F200 X32.352 Y28.077
G01 F200 X32.298 Y28.038
G01 F200 X31.086 Y26.825
G01 F200 X30.783 Y26.825
G01 F200 X30.772 Y26.857
G01 F200 X30.681 Y27.015
G01 F200 X30.558 Y27.152
G01 F200 X30.410 Y27.259
G01 F200 X30.242 Y27.334
G01 F200 X30.063 Y27.372
G01 F200 X29.880 Y27.372
G01 F200 X29.700 Y27.334
G01 F200 X29.533 Y27.259
G01 F200 X29.385 Y27.152
G01 F200 X29.262 Y27.015
G01 F200 X29.170 Y26.857
G01 F200 X29.114 Y26.682
G01 F200 X29.095 Y26.500
G01 F200 X29.114 Y26.318
G01 F200 X29.170 Y26.143
G01 F200 X29.262 Y25.985
G01 F200 X29.385 Y25.849
G01 F200 X29.533 Y25.741
G01 F200 X29.700 Y25.666
G01 F200 X29.880 Y25.628
G01 F200 X30.063 Y25.628
G01 F200 X30.242 Y25.666
G01 F200 X30.410 Y25.741
G01 F200 X30.558 Y25.849
G01 F200 X30.681 Y25.985
G01 F200 X30.772 Y26.143
G01 F200 X30.783 Y26.175
G01 F200 X31.256 Y26.175
G01 F200 X31.323 Y26.189
G01 F200 X31.385 Y26.217
G01 F200 X31.418 Y26.241
G01 F200 X40.620 Y27.465
G01 F200 X50.607 Y17.347
G01 F200 X50.661 Y17.308
G01 F200 X50.723 Y17.280
G01 F200 X50.790 Y17.266
G01 F200 X62.723 Y17.266
G01 F200 X71.535 Y8.325
G01 F200 X71.535 Y4.926
G01 F200 X71.542 Y4.862
G01 F200 X71.563 Y4.797
G01 F200 X71.597 Y4.738
G01 F200 X71.639 Y4.691
G01 F200 X72.346 Y3.984
G01 F200 X72.294 Y3.822
G01 F200 X72.275 Y3.640
G01 F200 X72.294 Y3.458
G01 F200 X72.350 Y3.283
G01 F200 X72.442 Y3.125
G01 F200 X72.565 Y2.989
G01 F200 X72.713 Y2.881
G01 F200 X72.880 Y2.806
G01 F200 X73.060 Y2.768
G01 F200 X73.243 Y2.768
G01 F200 X73.422 Y2.806
G01 F200 X73.590 Y2.881
G01 F200 X73.738 Y2.989
G01 F200 X73.861 Y3.125
G01 F200 X73.952 Y3.283
G01 F200 X74.009 Y3.458
G01 F200 X74.028 Y3.640
G01 F200 X74.009 Y3.822
G01 F200 X73.952 Y3.997
G01 F200 X73.861 Y4.155
G01 F200 X73.738 Y4.292
G01 F200 X73.590 Y4.399
G01 F200 X73.422 Y4.474
G01 F200 X73.243 Y4.512
G01 F200 X73.060 Y4.512
G01 F200 X72.880 Y4.474
G01 F200 X72.810 Y4.442
G01 F200 X72.188 Y5.064
G01 F200 X72.188 Y8.462
G01 F200 X72.181 Y8.526
G01 F200 X72.160 Y8.591
G01 F200 X72.126 Y8.650
G01 F200 X72.084 Y8.696
G01 F200 X62.946 Y17.835
G01 F200 X62.892 Y17.874
G01 F200 X62.830 Y17.902
G01 F200 X62.763 Y17.916
G01 F200 X50.960 Y17.916
G01 F200 X40.838 Y28.038
G01 F200 X40.784 Y28.077
G01 F200 X40.722 Y28.105
G01 F200 X40.655 Y28.119
G01 F200 X32.481 Y28.119
G00 F3000 Z3.000
G00 F3000 X40.040 Y27.372
G00 F1500 Z0
G01 F200 Z-0.200
G01 F200 X39.860 Y27.334
G01 F200 X39.693 Y27.259
G01 F200 X39.545 Y27.152
G01 F200 X39.422 Y27.015
G01 F200 X39.330 Y26.857
G01 F200 X39.274 Y26.682
G01 F200 X39.255 Y26.500
G01 F200 X39.274 Y26.318
G01 F200 X39.330 Y26.143
G01 F200 X39.422 Y25.985
G01 F200 X39.545 Y25.849
G01 F200 X39.693 Y25.741
G01 F200 X39.805 Y25.691
G01 F200 X39.805 Y23.499
G01 F200 X39.693 Y23.449
G01 F200 X39.545 Y23.341
G01 F200 X39.422 Y23.205
G01 F200 X39.330 Y23.047
G01 F200 X39.274 Y22.872
G01 F200 X39.255 Y22.690
G01 F200 X39.274 Y22.508
G01 F200 X39.330 Y22.333
G01 F200 X39.422 Y22.175
G01 F200 X39.545 Y22.039
G01 F200 X39.693 Y21.931
G01 F200 X39.860 Y21.856
G01 F200 X40.040 Y21.818
G01 F200 X40.223 Y21.818
G01 F200 X40.402 Y21.856
G01 F200 X40.570 Y21.931
G01 F200 X40.718 Y22.039
G01 F200 X40.841 Y22.175
G01 F200 X40.932 Y22.333
G01 F200 X40.943 Y22.365
G01 F200 X43.825 Y22.365
G01 F200 X49.985 Y16.205
G01 F200 X49.985 Y16.140
G01 F200 X49.991 Y16.076
G01 F200 X50.013 Y16.011
G01 F200 X50.047 Y15.952
G01 F200 X50.088 Y15.905
G01 F200 X50.240 Y15.753
G01 F200 X50.294 Y15.715
G01 F200 X50.356 Y15.687
G01 F200 X50.423 Y15.673
G01 F200 X50.979 Y15.673
G01 F200 X51.766 Y14.886
G01 F200 X51.819 Y14.847
G01 F200 X51.882 Y14.819
G01 F200 X51.949 Y14.805
G01 F200 X52.224 Y14.805
G01 F200 X52.291 Y14.819
G01 F200 X52.353 Y14.847
G01 F200 X52.379 Y14.866
G01 F200 X63.950 Y14.866
G01 F200 X65.336 Y13.481
G01 F200 X65.336 Y4.490
G01 F200 X65.260 Y4.474
G01 F200 X65.093 Y4.399
G01 F200 X64.945 Y4.292
G01 F200 X64.822 Y4.155
G01 F200 X64.730 Y3.997
G01 F200 X64.674 Y3.822
G01 F200 X64.655 Y3.640
G01 F200 X64.674 Y3.458
G01 F200 X64.730 Y3.283
G01 F200 X64.822 Y3.125
G01 F200 X64.945 Y2.989
G01 F200 X65.093 Y2.881
G01 F200 X65.260 Y2.806
G01 F200 X65.440 Y2.768
G01 F200 X65.623 Y2.768
G01 F200 X65.802 Y2.806
G01 F200 X65.970 Y2.881
G01 F200 X66.118 Y2.989
G01 F200 X66.241 Y3.125
G01 F200 X66.332 Y3.283
G01 F200 X66.389 Y3.458
G01 F200 X66.408 Y3.640
G01 F200 X66.389 Y3.822
G01 F200 X66.332 Y3.997
G01 F200 X66.241 Y4.155
G01 F200 X66.117 Y4.292
G01 F200 X65.988 Y4.381
G01 F200 X65.988 Y13.619
G01 F200 X65.982 Y13.683
G01 F200 X65.960 Y13.748
G01 F200 X65.926 Y13.807
G01 F200 X65.885 Y13.854
G01 F200 X64.303 Y15.435
G01 F200 X64.250 Y15.474
G01 F200 X64.188 Y15.502
G01 F200 X64.121 Y15.516
G01 F200 X52.217 Y15.516
G01 F200 X52.150 Y15.502
G01 F200 X52.096 Y15.478
G01 F200 X51.995 Y15.579
G01 F200 X52.000 Y15.581
G01 F200 X52.148 Y15.689
G01 F200 X52.271 Y15.825
G01 F200 X52.362 Y15.983
G01 F200 X52.419 Y16.158
G01 F200 X52.438 Y16.340
G01 F200 X52.419 Y16.522
G01 F200 X52.362 Y16.697
G01 F200 X52.271 Y16.855
G01 F200 X52.148 Y16.992
G01 F200 X52.000 Y17.099
G01 F200 X51.832 Y17.174
G01 F200 X51.653 Y17.212
G01 F200 X51.470 Y17.212
G01 F200 X51.290 Y17.174
G01 F200 X51.123 Y17.099
G01 F200 X50.975 Y16.992
G01 F200 X50.852 Y16.855
G01 F200 X50.760 Y16.697
G01 F200 X50.750 Y16.665
G01 F200 X50.447 Y16.665
G01 F200 X44.178 Y22.934
G01 F200 X44.124 Y22.973
G01 F200 X44.062 Y23.001
G01 F200 X43.995 Y23.015
G01 F200 X40.943 Y23.015
G01 F200 X40.932 Y23.047
G01 F200 X40.841 Y23.205
G01 F200 X40.718 Y23.341
G01 F200 X40.570 Y23.449
G01 F200 X40.458 Y23.499
G01 F200 X40.458 Y25.691
G01 F200 X40.570 Y25.741
G01 F200 X40.718 Y25.849
G01 F200 X40.841 Y25.985
G01 F200 X40.932 Y26.143
G01 F200 X40.989 Y26.318
G01 F200 X41.008 Y26.500
G01 F200 X40.989 Y26.682
G01 F200 X40.932 Y26.857
G01 F200 X40.841 Y27.015
G01 F200 X40.718 Y27.152
G01 F200 X40.570 Y27.259
G01 F200 X40.402 Y27.334
G01 F200 X40.223 Y27.372
G01 F200 X40.040 Y27.372
G00 F3000 Z3.000
G00 F3000 X8.290 Y27.372
G00 F1500 Z0
G01 F200 Z-0.200
G01 F200 X8.110 Y27.334
G01 F200 X7.943 Y27.259
G01 F200 X7.795 Y27.152
G01 F200 X7.672 Y27.015
G01 F200 X7.580 Y26.857
G01 F200 X7.524 Y26.682
G01 F200 X7.505 Y26.500
G01 F200 X7.524 Y26.318
G01 F200 X7.580 Y26.143
G01 F200 X7.672 Y25.985
G01 F200 X7.795 Y25.849
G01 F200 X7.943 Y25.741
G01 F200 X8.055 Y25.691
G01 F200 X8.055 Y20.748
G01 F200 X8.062 Y20.684
G01 F200 X8.083 Y20.619
G01 F200 X8.117 Y20.560
G01 F200 X8.159 Y20.513
G01 F200 X9.542 Y19.130
G01 F200 X9.596 Y19.091
G01 F200 X9.658 Y19.063
G01 F200 X9.725 Y19.049
G01 F200 X12.911 Y19.049
G01 F200 X16.275 Y15.685
G01 F200 X16.212 Y15.577
G01 F200 X16.132 Y15.329
G01 F200 X16.105 Y15.070
G01 F200 X16.132 Y14.811
G01 F200 X16.212 Y14.563
G01 F200 X16.343 Y14.337
G01 F200 X16.517 Y14.144
G01 F200 X16.728 Y13.990
G01 F200 X16.966 Y13.884
G01 F200 X17.025 Y13.872
G01 F200 X17.025 Y12.365
G01 F200 X12.436 Y7.775
G01 F200 X12.131 Y7.775
G01 F200 X12.081 Y7.888
G01 F200 X11.973 Y8.037
G01 F200 X11.837 Y8.159
G01 F200 X11.678 Y8.251
G01 F200 X11.504 Y8.308
G01 F200 X11.325 Y8.326
G01 F200 X10.517 Y8.326
G01 F200 X10.339 Y8.308
G01 F200 X10.165 Y8.251
G01 F200 X10.006 Y8.159
G01 F200 X9.870 Y8.037
G01 F200 X9.762 Y7.888
G01 F200 X9.688 Y7.721
G01 F200 X9.649 Y7.542
G01 F200 X9.649 Y7.358
G01 F200 X9.688 Y7.179
G01 F200 X9.762 Y7.012
G01 F200 X9.870 Y6.863
G01 F200 X10.006 Y6.741
G01 F200 X10.165 Y6.649
G01 F200 X10.339 Y6.592
G01 F200 X10.517 Y6.574
G01 F200 X11.325 Y6.574
G01 F200 X11.504 Y6.592
G01 F200 X11.678 Y6.649
G01 F200 X11.837 Y6.741
G01 F200 X11.973 Y6.863
G01 F200 X12.081 Y7.012
G01 F200 X12.131 Y7.125
G01 F200 X12.606 Y7.125
G01 F200 X12.673 Y7.139
G01 F200 X12.735 Y7.167
G01 F200 X12.789 Y7.206
G01 F200 X17.574 Y11.991
G01 F200 X17.616 Y12.038
G01 F200 X17.650 Y12.097
G01 F200 X17.671 Y12.162
G01 F200 X17.678 Y12.226
G01 F200 X17.678 Y13.872
G01 F200 X17.736 Y13.884
G01 F200 X17.975 Y13.990
G01 F200 X18.186 Y14.144
G01 F200 X18.360 Y14.337
G01 F200 X18.490 Y14.563
G01 F200 X18.571 Y14.811
G01 F200 X18.598 Y15.070
G01 F200 X18.571 Y15.329
G01 F200 X18.490 Y15.577
G01 F200 X18.360 Y15.803
G01 F200 X18.186 Y15.997
G01 F200 X17.975 Y16.150
G01 F200 X17.737 Y16.256
G01 F200 X17.482 Y16.310
G01 F200 X17.221 Y16.310
G01 F200 X16.966 Y16.256
G01 F200 X16.731 Y16.151
G01 F200 X13.264 Y19.618
G01 F200 X13.211 Y19.657
G01 F200 X13.148 Y19.685
G01 F200 X13.082 Y19.699
G01 F200 X9.895 Y19.699
G01 F200 X8.708 Y20.887
G01 F200 X8.708 Y25.691
G01 F200 X8.820 Y25.741
G01 F200 X8.968 Y25.849
G01 F200 X9.091 Y25.985
G01 F200 X9.182 Y26.143
G01 F200 X9.239 Y26.318
G01 F200 X9.258 Y26.500
G01 F200 X9.239 Y26.682
G01 F200 X9.182 Y26.857
G01 F200 X9.091 Y27.015
G01 F200 X8.968 Y27.152
G01 F200 X8.820 Y27.259
G01 F200 X8.652 Y27.334
G01 F200 X8.473 Y27.372
G01 F200 X8.290 Y27.372
G00 F3000 Z3.000
G00 F3000 X18.450 Y27.372
G00 F1500 Z0
G01 F200 Z-0.200
G01 F200 X18.270 Y27.334
G01 F200 X18.103 Y27.259
G01 F200 X17.955 Y27.152
G01 F200 X17.832 Y27.015
G01 F200 X17.740 Y26.857
G01 F200 X17.730 Y26.825
G01 F200 X17.257 Y26.825
G01 F200 X17.190 Y26.811
G01 F200 X17.128 Y26.783
G01 F200 X17.074 Y26.744
G01 F200 X14.509 Y24.179
G01 F200 X14.467 Y24.132
G01 F200 X14.433 Y24.073
G01 F200 X14.412 Y24.008
G01 F200 X14.405 Y23.944
G01 F200 X14.405 Y22.412
G01 F200 X14.393 Y22.406
G01 F200 X14.279 Y22.323
G01 F200 X14.184 Y22.218
G01 F200 X14.113 Y22.095
G01 F200 X14.069 Y21.961
G01 F200 X14.055 Y21.824
G01 F200 X14.055 Y21.016
G01 F200 X14.069 Y20.879
G01 F200 X14.113 Y20.745
G01 F200 X14.184 Y20.622
G01 F200 X14.279 Y20.517
G01 F200 X14.393 Y20.434
G01 F200 X14.405 Y20.429
G01 F200 X14.405 Y19.966
G01 F200 X14.412 Y19.902
G01 F200 X14.433 Y19.837
G01 F200 X14.467 Y19.778
G01 F200 X14.513 Y19.727
G01 F200 X14.568 Y19.687
G01 F200 X14.630 Y19.659
G01 F200 X14.697 Y19.645
G01 F200 X19.646 Y19.645
G01 F200 X23.661 Y15.630
G01 F200 X23.661 Y14.516
G01 F200 X14.380 Y5.235
G01 F200 X12.131 Y5.235
G01 F200 X12.081 Y5.348
G01 F200 X11.973 Y5.497
G01 F200 X11.837 Y5.619
G01 F200 X11.678 Y5.711
G01 F200 X11.504 Y5.768
G01 F200 X11.325 Y5.786
G01 F200 X10.517 Y5.786
G01 F200 X10.339 Y5.768
G01 F200 X10.165 Y5.711
G01 F200 X10.006 Y5.619
G01 F200 X9.870 Y5.497
G01 F200 X9.762 Y5.348
G01 F200 X9.688 Y5.181
G01 F200 X9.649 Y5.002
G01 F200 X9.649 Y4.818
G01 F200 X9.688 Y4.639
G01 F200 X9.762 Y4.472
G01 F200 X9.870 Y4.323
G01 F200 X10.006 Y4.201
G01 F200 X10.165 Y4.109
G01 F200 X10.339 Y4.052
G01 F200 X10.517 Y4.034
G01 F200 X11.325 Y4.034
G01 F200 X11.504 Y4.052
G01 F200 X11.678 Y4.109
G01 F200 X11.837 Y4.201
G01 F200 X11.973 Y4.323
G01 F200 X12.081 Y4.472
G01 F200 X12.131 Y4.585
G01 F200 X14.551 Y4.585
G01 F200 X14.617 Y4.599
G01 F200 X14.680 Y4.627
G01 F200 X14.733 Y4.666
G01 F200 X24.210 Y14.142
G01 F200 X24.251 Y14.189
G01 F200 X24.286 Y14.248
G01 F200 X24.307 Y14.313
G01 F200 X24.313 Y14.377
G01 F200 X24.313 Y15.769
G01 F200 X24.307 Y15.833
G01 F200 X24.286 Y15.898
G01 F200 X24.251 Y15.957
G01 F200 X24.210 Y16.003
G01 F200 X19.999 Y20.214
G01 F200 X19.946 Y20.253
G01 F200 X19.883 Y20.280
G01 F200 X19.816 Y20.295
G01 F200 X15.058 Y20.295
G01 F200 X15.058 Y20.429
G01 F200 X15.070 Y20.434
G01 F200 X15.184 Y20.517
G01 F200 X15.279 Y20.622
G01 F200 X15.350 Y20.745
G01 F200 X15.393 Y20.879
G01 F200 X15.408 Y21.016
G01 F200 X15.408 Y21.824
G01 F200 X15.393 Y21.961
G01 F200 X15.350 Y22.095
G01 F200 X15.279 Y22.218
G01 F200 X15.184 Y22.323
G01 F200 X15.070 Y22.406
G01 F200 X15.058 Y22.411
G01 F200 X15.058 Y23.806
G01 F200 X17.427 Y26.175
G01 F200 X17.730 Y26.175
G01 F200 X17.740 Y26.143
G01 F200 X17.832 Y25.985
G01 F200 X17.955 Y25.849
G01 F200 X18.103 Y25.741
G01 F200 X18.270 Y25.666
G01 F200 X18.450 Y25.628
G01 F200 X18.633 Y25.628
G01 F200 X18.812 Y25.666
G01 F200 X18.980 Y25.741
G01 F200 X19.128 Y25.849
G01 F200 X19.251 Y25.985
G01 F200 X19.342 Y26.143
G01 F200 X19.353 Y26.175
G01 F200 X20.270 Y26.175
G01 F200 X20.280 Y26.143
G01 F200 X20.372 Y25.985
G01 F200 X20.495 Y25.849
G01 F200 X20.643 Y25.741
G01 F200 X20.810 Y25.666
G01 F200 X20.990 Y25.628
G01 F200 X21.173 Y25.628
G01 F200 X21.352 Y25.666
G01 F200 X21.520 Y25.741
G01 F200 X21.668 Y25.849
G01 F200 X21.791 Y25.985
G01 F200 X21.882 Y26.143
G01 F200 X21.939 Y26.318
G01 F200 X21.958 Y26.500
G01 F200 X21.939 Y26.682
G01 F200 X21.882 Y26.857
G01 F200 X21.791 Y27.015
G01 F200 X21.668 Y27.152
G01 F200 X21.520 Y27.259
G01 F200 X21.352 Y27.334
G01 F200 X21.173 Y27.372
G01 F200 X20.990 Y27.372
G01 F200 X20.810 Y27.334
G01 F200 X20.643 Y27.259
G01 F200 X20.495 Y27.152
G01 F200 X20.372 Y27.015
G01 F200 X20.280 Y26.857
G01 F200 X20.270 Y26.825
G01 F200 X19.353 Y26.825
G01 F200 X19.342 Y26.857
G01 F200 X19.251 Y27.015
G01 F200 X19.128 Y27.152
G01 F200 X18.980 Y27.259
G01 F200 X18.812 Y27.334
G01 F200 X18.633 Y27.372
G01 F200 X18.450 Y27.372
G00 F3000 Z3.000
G00 F3000 X69.229 Y26.381
G00 F1500 Z0
G01 F200 Z-0.200
G01 F200 X69.009 Y26.334
G01 F200 X68.803 Y26.242
G01 F200 X68.621 Y26.110
G01 F200 X68.470 Y25.943
G01 F200 X68.358 Y25.748
G01 F200 X68.288 Y25.534
G01 F200 X68.265 Y25.310
G01 F200 X68.288 Y25.086
G01 F200 X68.358 Y24.872
G01 F200 X68.470 Y24.677
G01 F200 X68.621 Y24.510
G01 F200 X68.803 Y24.378
G01 F200 X69.009 Y24.286
G01 F200 X69.229 Y24.239
G01 F200 X69.454 Y24.239
G01 F200 X69.674 Y24.286
G01 F200 X69.880 Y24.378
G01 F200 X70.062 Y24.510
G01 F200 X70.212 Y24.677
G01 F200 X70.325 Y24.872
G01 F200 X70.362 Y24.985
G01 F200 X72.935 Y24.985
G01 F200 X74.908 Y22.979
G01 F200 X74.871 Y22.864
G01 F200 X74.853 Y22.690
G01 F200 X74.871 Y22.516
G01 F200 X74.925 Y22.349
G01 F200 X75.013 Y22.197
G01 F200 X75.130 Y22.067
G01 F200 X75.272 Y21.964
G01 F200 X75.432 Y21.892
G01 F200 X75.604 Y21.856
G01 F200 X75.779 Y21.856
G01 F200 X75.951 Y21.892
G01 F200 X76.111 Y21.964
G01 F200 X76.252 Y22.067
G01 F200 X76.370 Y22.197
G01 F200 X76.458 Y22.349
G01 F200 X76.512 Y22.516
G01 F200 X76.530 Y22.690
G01 F200 X76.512 Y22.864
G01 F200 X76.458 Y23.031
G01 F200 X76.370 Y23.183
G01 F200 X76.252 Y23.313
G01 F200 X76.111 Y23.416
G01 F200 X75.951 Y23.488
G01 F200 X75.779 Y23.524
G01 F200 X75.604 Y23.524
G01 F200 X75.432 Y23.488
G01 F200 X75.379 Y23.464
G01 F200 X73.288 Y25.554
G01 F200 X73.235 Y25.593
G01 F200 X73.172 Y25.621
G01 F200 X73.106 Y25.635
G01 F200 X70.362 Y25.635
G01 F200 X70.325 Y25.748
G01 F200 X70.212 Y25.943
G01 F200 X70.062 Y26.110
G01 F200 X69.880 Y26.242
G01 F200 X69.674 Y26.334
G01 F200 X69.454 Y26.381
G01 F200 X69.229 Y26.381
G00 F3000 Z3.000
G00 F3000 X75.604 Y26.064
G00 F1500 Z0
G01 F200 Z-0.200
G01 F200 X75.432 Y26.028
G01 F200 X75.272 Y25.956
G01 F200 X75.130 Y25.853
G01 F200 X75.013 Y25.723
G01 F200 X74.925 Y25.571
G01 F200 X74.871 Y25.404
G01 F200 X74.853 Y25.230
G01 F200 X74.871 Y25.056
G01 F200 X74.925 Y24.889
G01 F200 X75.013 Y24.737
G01 F200 X75.130 Y24.607
G01 F200 X75.272 Y24.504
G01 F200 X75.432 Y24.432
G01 F200 X75.604 Y24.396
G01 F200 X75.779 Y24.396
G01 F200 X75.951 Y24.432
G01 F200 X76.111 Y24.504
G01 F200 X76.252 Y24.607
G01 F200 X76.370 Y24.737
G01 F200 X76.458 Y24.889
G01 F200 X76.512 Y25.056
G01 F200 X76.530 Y25.230
G01 F200 X76.512 Y25.404
G01 F200 X76.458 Y25.571
G01 F200 X76.370 Y25.723
G01 F200 X76.252 Y25.853
G01 F200 X76.111 Y25.956
G01 F200 X75.951 Y26.028
G01 F200 X75.779 Y26.064
G01 F200 X75.604 Y26.064
G00 F3000 Z3.000
G00 F3000 X10.195 Y25.467
G00 F1500 Z0
G01 F200 Z-0.200
G01 F200 X10.015 Y25.429
G01 F200 X9.848 Y25.354
G01 F200 X9.700 Y25.247
G01 F200 X9.577 Y25.110
G01 F200 X9.485 Y24.952
G01 F200 X9.429 Y24.777
G01 F200 X9.410 Y24.595
G01 F200 X9.429 Y24.413
G01 F200 X9.481 Y24.251
G01 F200 X9.429 Y24.198
G01 F200 X9.387 Y24.152
G01 F200 X9.353 Y24.093
G01 F200 X9.332 Y24.028
G01 F200 X9.325 Y23.964
G01 F200 X9.325 Y22.411
G01 F200 X9.313 Y22.406
G01 F200 X9.199 Y22.323
G01 F200 X9.104 Y22.218
G01 F200 X9.033 Y22.095
G01 F200 X8.989 Y21.961
G01 F200 X8.975 Y21.824
G01 F200 X8.975 Y21.016
G01 F200 X8.989 Y20.879
G01 F200 X9.033 Y20.745
G01 F200 X9.104 Y20.622
G01 F200 X9.199 Y20.517
G01 F200 X9.313 Y20.434
G01 F200 X9.442 Y20.376
G01 F200 X9.581 Y20.347
G01 F200 X9.722 Y20.347
G01 F200 X9.860 Y20.376
G01 F200 X9.990 Y20.434
G01 F200 X10.104 Y20.517
G01 F200 X10.199 Y20.622
G01 F200 X10.270 Y20.745
G01 F200 X10.313 Y20.879
G01 F200 X10.328 Y21.016
G01 F200 X10.328 Y21.824
G01 F200 X10.313 Y21.961
G01 F200 X10.270 Y22.095
G01 F200 X10.199 Y22.218
G01 F200 X10.104 Y22.323
G01 F200 X9.990 Y22.406
G01 F200 X9.978 Y22.411
G01 F200 X9.978 Y23.778
G01 F200 X10.015 Y23.761
G01 F200 X10.195 Y23.723
G01 F200 X10.378 Y23.723
G01 F200 X10.557 Y23.761
G01 F200 X10.725 Y23.836
G01 F200 X10.873 Y23.944
G01 F200 X10.996 Y24.080
G01 F200 X11.087 Y24.238
G01 F200 X11.144 Y24.413
G01 F200 X11.163 Y24.595
G01 F200 X11.144 Y24.777
G01 F200 X11.087 Y24.952
G01 F200 X10.996 Y25.110
G01 F200 X10.873 Y25.247
G01 F200 X10.725 Y25.354
G01 F200 X10.557 Y25.429
G01 F200 X10.378 Y25.467
G01 F200 X10.195 Y25.467
G00 F3000 Z3.000
G00 F3000 X57.035 Y24.836
G00 F1500 Z0
G01 F200 Z-0.200
G01 F200 X57.035 Y24.285
G01 F200 X56.627 Y24.285
G01 F200 X56.560 Y24.271
G01 F200 X56.498 Y24.243
G01 F200 X56.442 Y24.203
G01 F200 X56.397 Y24.152
G01 F200 X56.363 Y24.093
G01 F200 X56.341 Y24.028
G01 F200 X56.335 Y23.964
G01 F200 X56.335 Y23.548
G01 F200 X55.802 Y23.015
G01 F200 X51.102 Y23.015
G01 F200 X51.092 Y23.047
G01 F200 X51.001 Y23.205
G01 F200 X50.878 Y23.341
G01 F200 X50.730 Y23.449
G01 F200 X50.562 Y23.524
G01 F200 X50.383 Y23.562
G01 F200 X50.200 Y23.562
G01 F200 X50.020 Y23.524
G01 F200 X49.853 Y23.449
G01 F200 X49.705 Y23.341
G01 F200 X49.582 Y23.205
G01 F200 X49.490 Y23.047
G01 F200 X49.434 Y22.872
G01 F200 X49.415 Y22.690
G01 F200 X49.434 Y22.508
G01 F200 X49.490 Y22.333
G01 F200 X49.582 Y22.175
G01 F200 X49.705 Y22.039
G01 F200 X49.853 Y21.931
G01 F200 X50.020 Y21.856
G01 F200 X50.200 Y21.818
G01 F200 X50.383 Y21.818
G01 F200 X50.562 Y21.856
G01 F200 X50.730 Y21.931
G01 F200 X50.878 Y22.039
G01 F200 X51.001 Y22.175
G01 F200 X51.092 Y22.333
G01 F200 X51.102 Y22.365
G01 F200 X55.972 Y22.365
G01 F200 X56.039 Y22.379
G01 F200 X56.101 Y22.407
G01 F200 X56.155 Y22.446
G01 F200 X56.884 Y23.175
G01 F200 X56.925 Y23.221
G01 F200 X56.960 Y23.280
G01 F200 X56.981 Y23.345
G01 F200 X56.987 Y23.409
G01 F200 X56.987 Y23.635
G01 F200 X57.035 Y23.635
G01 F200 X57.035 Y23.084
G01 F200 X58.788 Y23.084
G01 F200 X58.788 Y24.836
G01 F200 X57.035 Y24.836
G00 F3000 Z3.000
G00 F3000 X12.100 Y24.197
G00 F1500 Z0
G01 F200 Z-0.200
G01 F200 X11.920 Y24.159
G01 F200 X11.753 Y24.084
G01 F200 X11.605 Y23.977
G01 F200 X11.482 Y23.840
G01 F200 X11.390 Y23.682
G01 F200 X11.334 Y23.507
G01 F200 X11.315 Y23.325
G01 F200 X11.334 Y23.143
G01 F200 X11.390 Y22.968
G01 F200 X11.482 Y22.810
G01 F200 X11.605 Y22.674
G01 F200 X11.753 Y22.566
G01 F200 X11.865 Y22.516
G01 F200 X11.865 Y22.411
G01 F200 X11.853 Y22.406
G01 F200 X11.739 Y22.323
G01 F200 X11.644 Y22.218
G01 F200 X11.573 Y22.095
G01 F200 X11.529 Y21.961
G01 F200 X11.515 Y21.824
G01 F200 X11.515 Y21.016
G01 F200 X11.529 Y20.879
G01 F200 X11.573 Y20.745
G01 F200 X11.644 Y20.622
G01 F200 X11.739 Y20.517
G01 F200 X11.853 Y20.434
G01 F200 X11.982 Y20.376
G01 F200 X12.121 Y20.347
G01 F200 X12.262 Y20.347
G01 F200 X12.400 Y20.376
G01 F200 X12.530 Y20.434
G01 F200 X12.644 Y20.517
G01 F200 X12.739 Y20.622
G01 F200 X12.809 Y20.745
G01 F200 X12.853 Y20.879
G01 F200 X12.868 Y21.016
G01 F200 X12.868 Y21.824
G01 F200 X12.853 Y21.961
G01 F200 X12.809 Y22.095
G01 F200 X12.739 Y22.218
G01 F200 X12.644 Y22.323
G01 F200 X12.530 Y22.406
G01 F200 X12.518 Y22.411
G01 F200 X12.518 Y22.516
G01 F200 X12.630 Y22.566
G01 F200 X12.778 Y22.674
G01 F200 X12.901 Y22.810
G01 F200 X12.992 Y22.968
G01 F200 X13.049 Y23.143
G01 F200 X13.068 Y23.325
G01 F200 X13.049 Y23.507
G01 F200 X12.992 Y23.682
G01 F200 X12.901 Y23.840
G01 F200 X12.778 Y23.977
G01 F200 X12.630 Y24.084
G01 F200 X12.462 Y24.159
G01 F200 X12.283 Y24.197
G01 F200 X12.100 Y24.197
G00 F3000 Z3.000
G00 F3000 X34.960 Y24.197
G00 F1500 Z0
G01 F200 Z-0.200
G01 F200 X34.780 Y24.159
G01 F200 X34.613 Y24.084
G01 F200 X34.465 Y23.977
G01 F200 X34.342 Y23.840
G01 F200 X34.250 Y23.682
G01 F200 X34.194 Y23.507
G01 F200 X34.175 Y23.325
G01 F200 X34.194 Y23.143
G01 F200 X34.250 Y22.968
G01 F200 X34.342 Y22.810
G01 F200 X34.465 Y22.674
G01 F200 X34.613 Y22.566
G01 F200 X34.780 Y22.491
G01 F200 X34.960 Y22.453
G01 F200 X35.143 Y22.453
G01 F200 X35.322 Y22.491
G01 F200 X35.393 Y22.523
G01 F200 X35.634 Y22.281
G01 F200 X35.688 Y22.242
G01 F200 X35.750 Y22.214
G01 F200 X35.817 Y22.200
G01 F200 X37.640 Y22.200
G01 F200 X45.677 Y14.163
G01 F200 X45.731 Y14.124
G01 F200 X45.793 Y14.096
G01 F200 X45.860 Y14.082
G01 F200 X60.214 Y14.082
G01 F200 X60.281 Y14.096
G01 F200 X60.343 Y14.124
G01 F200 X60.397 Y14.163
G01 F200 X60.400 Y14.166
G01 F200 X63.660 Y14.166
G01 F200 X64.635 Y13.190
G01 F200 X64.635 Y11.474
G01 F200 X64.039 Y10.878
G01 F200 X63.997 Y10.831
G01 F200 X63.963 Y10.772
G01 F200 X63.942 Y10.707
G01 F200 X63.935 Y10.643
G01 F200 X63.935 Y3.101
G01 F200 X63.942 Y3.037
G01 F200 X63.963 Y2.972
G01 F200 X63.997 Y2.913
G01 F200 X64.039 Y2.867
G01 F200 X64.808 Y2.097
G01 F200 X64.862 Y2.058
G01 F200 X64.924 Y2.030
G01 F200 X64.991 Y2.016
G01 F200 X69.347 Y2.016
G01 F200 X69.413 Y2.030
G01 F200 X69.476 Y2.058
G01 F200 X69.529 Y2.097
G01 F200 X70.270 Y2.838
G01 F200 X70.340 Y2.806
G01 F200 X70.520 Y2.768
G01 F200 X70.703 Y2.768
G01 F200 X70.882 Y2.806
G01 F200 X71.050 Y2.881
G01 F200 X71.198 Y2.989
G01 F200 X71.321 Y3.125
G01 F200 X71.412 Y3.283
G01 F200 X71.469 Y3.458
G01 F200 X71.488 Y3.640
G01 F200 X71.469 Y3.822
G01 F200 X71.412 Y3.997
G01 F200 X71.321 Y4.155
G01 F200 X71.198 Y4.292
G01 F200 X71.050 Y4.399
G01 F200 X70.882 Y4.474
G01 F200 X70.703 Y4.512
G01 F200 X70.520 Y4.512
G01 F200 X70.340 Y4.474
G01 F200 X70.173 Y4.399
G01 F200 X70.025 Y4.292
G01 F200 X69.902 Y4.155
G01 F200 X69.810 Y3.997
G01 F200 X69.754 Y3.822
G01 F200 X69.735 Y3.640
G01 F200 X69.754 Y3.458
G01 F200 X69.806 Y3.296
G01 F200 X69.176 Y2.666
G01 F200 X65.161 Y2.666
G01 F200 X64.588 Y3.240
G01 F200 X64.588 Y10.504
G01 F200 X65.184 Y11.101
G01 F200 X65.226 Y11.148
G01 F200 X65.260 Y11.207
G01 F200 X65.281 Y11.272
G01 F200 X65.288 Y11.335
G01 F200 X65.288 Y13.329
G01 F200 X65.281 Y13.393
G01 F200 X65.260 Y13.458
G01 F200 X65.226 Y13.517
G01 F200 X65.184 Y13.564
G01 F200 X64.013 Y14.735
G01 F200 X63.960 Y14.774
G01 F200 X63.897 Y14.801
G01 F200 X63.831 Y14.816
G01 F200 X60.229 Y14.816
G01 F200 X60.163 Y14.801
G01 F200 X60.100 Y14.774
G01 F200 X60.047 Y14.735
G01 F200 X60.044 Y14.732
G01 F200 X46.030 Y14.732
G01 F200 X37.993 Y22.769
G01 F200 X37.939 Y22.808
G01 F200 X37.877 Y22.836
G01 F200 X37.810 Y22.850
G01 F200 X35.987 Y22.850
G01 F200 X35.856 Y22.981
G01 F200 X35.909 Y23.143
G01 F200 X35.928 Y23.325
G01 F200 X35.909 Y23.507
G01 F200 X35.852 Y23.682
G01 F200 X35.761 Y23.840
G01 F200 X35.638 Y23.977
G01 F200 X35.490 Y24.084
G01 F200 X35.322 Y24.159
G01 F200 X35.143 Y24.197
G01 F200 X34.960 Y24.197
G00 F3000 Z3.000
G00 F3000 X61.630 Y22.927
G00 F1500 Z0
G01 F200 Z-0.200
G01 F200 X61.450 Y22.889
G01 F200 X61.283 Y22.814
G01 F200 X61.135 Y22.707
G01 F200 X61.012 Y22.570
G01 F200 X60.920 Y22.412
G01 F200 X60.864 Y22.237
G01 F200 X60.845 Y22.055
G01 F200 X60.864 Y21.873
G01 F200 X60.920 Y21.698
G01 F200 X61.012 Y21.540
G01 F200 X61.135 Y21.404
G01 F200 X61.283 Y21.296
G01 F200 X61.395 Y21.246
G01 F200 X61.395 Y20.285
G01 F200 X60.793 Y19.682
G01 F200 X60.722 Y19.714
G01 F200 X60.543 Y19.752
G01 F200 X60.360 Y19.752
G01 F200 X60.180 Y19.714
G01 F200 X60.013 Y19.639
G01 F200 X59.865 Y19.532
G01 F200 X59.742 Y19.395
G01 F200 X59.650 Y19.237
G01 F200 X59.594 Y19.062
G01 F200 X59.575 Y18.880
G01 F200 X59.594 Y18.698
G01 F200 X59.650 Y18.523
G01 F200 X59.742 Y18.365
G01 F200 X59.865 Y18.229
G01 F200 X60.013 Y18.121
G01 F200 X60.180 Y18.046
G01 F200 X60.360 Y18.008
G01 F200 X60.543 Y18.008
G01 F200 X60.722 Y18.046
G01 F200 X60.890 Y18.121
G01 F200 X61.038 Y18.229
G01 F200 X61.161 Y18.365
G01 F200 X61.252 Y18.523
G01 F200 X61.309 Y18.698
G01 F200 X61.328 Y18.880
G01 F200 X61.309 Y19.062
G01 F200 X61.256 Y19.224
G01 F200 X61.944 Y19.912
G01 F200 X61.986 Y19.958
G01 F200 X62.020 Y20.017
G01 F200 X62.041 Y20.082
G01 F200 X62.048 Y20.146
G01 F200 X62.048 Y21.246
G01 F200 X62.160 Y21.296
G01 F200 X62.308 Y21.404
G01 F200 X62.431 Y21.540
G01 F200 X62.522 Y21.698
G01 F200 X62.579 Y21.873
G01 F200 X62.598 Y22.055
G01 F200 X62.579 Y22.237
G01 F200 X62.522 Y22.412
G01 F200 X62.431 Y22.570
G01 F200 X62.308 Y22.707
G01 F200 X62.160 Y22.814
G01 F200 X61.992 Y22.889
G01 F200 X61.813 Y22.927
G01 F200 X61.630 Y22.927
G00 F3000 Z3.000
G00 F3000 X57.185 Y21.657
G00 F1500 Z0
G01 F200 Z-0.200
G01 F200 X57.005 Y21.619
G01 F200 X56.838 Y21.544
G01 F200 X56.690 Y21.437
G01 F200 X56.567 Y21.300
G01 F200 X56.475 Y21.142
G01 F200 X56.419 Y20.967
G01 F200 X56.400 Y20.785
G01 F200 X56.419 Y20.603
G01 F200 X56.475 Y20.428
G01 F200 X56.567 Y20.270
G01 F200 X56.690 Y20.134
G01 F200 X56.838 Y20.026
G01 F200 X56.950 Y19.976
G01 F200 X56.950 Y19.511
G01 F200 X56.957 Y19.447
G01 F200 X56.978 Y19.382
G01 F200 X57.012 Y19.323
G01 F200 X57.054 Y19.277
G01 F200 X57.106 Y19.224
G01 F200 X57.054 Y19.062
G01 F200 X57.035 Y18.880
G01 F200 X57.054 Y18.698
G01 F200 X57.110 Y18.523
G01 F200 X57.202 Y18.365
G01 F200 X57.325 Y18.229
G01 F200 X57.473 Y18.121
G01 F200 X57.640 Y18.046
G01 F200 X57.820 Y18.008
G01 F200 X58.003 Y18.008
G01 F200 X58.182 Y18.046
G01 F200 X58.350 Y18.121
G01 F200 X58.498 Y18.229
G01 F200 X58.621 Y18.365
G01 F200 X58.712 Y18.523
G01 F200 X58.769 Y18.698
G01 F200 X58.788 Y18.880
G01 F200 X58.769 Y19.062
G01 F200 X58.712 Y19.237
G01 F200 X58.621 Y19.395
G01 F200 X58.498 Y19.532
G01 F200 X58.350 Y19.639
G01 F200 X58.182 Y19.714
G01 F200 X58.003 Y19.752
G01 F200 X57.820 Y19.752
G01 F200 X57.640 Y19.714
G01 F200 X57.603 Y19.697
G01 F200 X57.603 Y19.976
G01 F200 X57.715 Y20.026
G01 F200 X57.863 Y20.134
G01 F200 X57.986 Y20.270
G01 F200 X58.077 Y20.428
G01 F200 X58.134 Y20.603
G01 F200 X58.153 Y20.785
G01 F200 X58.134 Y20.967
G01 F200 X58.077 Y21.142
G01 F200 X57.986 Y21.300
G01 F200 X57.863 Y21.437
G01 F200 X57.715 Y21.544
G01 F200 X57.547 Y21.619
G01 F200 X57.368 Y21.657
G01 F200 X57.185 Y21.657
G00 F3000 Z3.000
G00 F3000 X78.140 Y19.752
G00 F1500 Z0
G01 F200 Z-0.200
G01 F200 X77.960 Y19.714
G01 F200 X77.793 Y19.639
G01 F200 X77.645 Y19.532
G01 F200 X77.522 Y19.395
G01 F200 X77.430 Y19.237
G01 F200 X77.374 Y19.062
G01 F200 X77.355 Y18.880
G01 F200 X77.374 Y18.698
G01 F200 X77.430 Y18.523
G01 F200 X77.522 Y18.365
G01 F200 X77.645 Y18.229
G01 F200 X77.793 Y18.121
G01 F200 X77.960 Y18.046
G01 F200 X78.140 Y18.008
G01 F200 X78.323 Y18.008
G01 F200 X78.502 Y18.046
G01 F200 X78.670 Y18.121
G01 F200 X78.818 Y18.229
G01 F200 X78.941 Y18.365
G01 F200 X79.032 Y18.523
G01 F200 X79.089 Y18.698
G01 F200 X79.108 Y18.880
G01 F200 X79.089 Y19.062
G01 F200 X79.032 Y19.237
G01 F200 X78.941 Y19.395
G01 F200 X78.818 Y19.532
G01 F200 X78.670 Y19.639
G01 F200 X78.502 Y19.714
G01 F200 X78.323 Y19.752
G01 F200 X78.140 Y19.752
G00 F3000 Z3.000
G00 F3000 X73.060 Y19.752
G00 F1500 Z0
G01 F200 Z-0.200
G01 F200 X72.880 Y19.714
G01 F200 X72.713 Y19.639
G01 F200 X72.565 Y19.532
G01 F200 X72.442 Y19.395
G01 F200 X72.350 Y19.237
G01 F200 X72.294 Y19.062
G01 F200 X72.275 Y18.880
G01 F200 X72.294 Y18.698
G01 F200 X72.350 Y18.523
G01 F200 X72.442 Y18.365
G01 F200 X72.565 Y18.229
G01 F200 X72.713 Y18.121
G01 F200 X72.880 Y18.046
G01 F200 X73.060 Y18.008
G01 F200 X73.243 Y18.008
G01 F200 X73.422 Y18.046
G01 F200 X73.590 Y18.121
G01 F200 X73.738 Y18.229
G01 F200 X73.861 Y18.365
G01 F200 X73.952 Y18.523
G01 F200 X74.009 Y18.698
G01 F200 X74.028 Y18.880
G01 F200 X74.009 Y19.062
G01 F200 X73.952 Y19.237
G01 F200 X73.861 Y19.395
G01 F200 X73.738 Y19.532
G01 F200 X73.590 Y19.639
G01 F200 X73.422 Y19.714
G01 F200 X73.243 Y19.752
G01 F200 X73.060 Y19.752
G00 F3000 Z3.000
G00 F3000 X83.220 Y19.752
G00 F1500 Z0
G01 F200 Z-0.200
G01 F200 X83.040 Y19.714
G01 F200 X82.873 Y19.639
G01 F200 X82.725 Y19.532
G01 F200 X82.602 Y19.395
G01 F200 X82.510 Y19.237
G01 F200 X82.454 Y19.062
G01 F200 X82.435 Y18.880
G01 F200 X82.454 Y18.698
G01 F200 X82.510 Y18.523
G01 F200 X82.602 Y18.365
G01 F200 X82.725 Y18.229
G01 F200 X82.873 Y18.121
G01 F200 X83.040 Y18.046
G01 F200 X83.220 Y18.008
G01 F200 X83.403 Y18.008
G01 F200 X83.582 Y18.046
G01 F200 X83.750 Y18.121
G01 F200 X83.898 Y18.229
G01 F200 X84.021 Y18.365
G01 F200 X84.112 Y18.523
G01 F200 X84.169 Y18.698
G01 F200 X84.188 Y18.880
G01 F200 X84.169 Y19.062
G01 F200 X84.112 Y19.237
G01 F200 X84.021 Y19.395
G01 F200 X83.898 Y19.532
G01 F200 X83.750 Y19.639
G01 F200 X83.582 Y19.714
G01 F200 X83.403 Y19.752
G01 F200 X83.220 Y19.752
G00 F3000 Z3.000
G00 F3000 X67.980 Y19.752
G00 F1500 Z0
G01 F200 Z-0.200
G01 F200 X67.800 Y19.714
G01 F200 X67.633 Y19.639
G01 F200 X67.485 Y19.532
G01 F200 X67.362 Y19.395
G01 F200 X67.270 Y19.237
G01 F200 X67.214 Y19.062
G01 F200 X67.195 Y18.880
G01 F200 X67.214 Y18.698
G01 F200 X67.270 Y18.523
G01 F200 X67.362 Y18.365
G01 F200 X67.485 Y18.229
G01 F200 X67.633 Y18.121
G01 F200 X67.800 Y18.046
G01 F200 X67.980 Y18.008
G01 F200 X68.163 Y18.008
G01 F200 X68.342 Y18.046
G01 F200 X68.510 Y18.121
G01 F200 X68.658 Y18.229
G01 F200 X68.781 Y18.365
G01 F200 X68.872 Y18.523
G01 F200 X68.929 Y18.698
G01 F200 X68.948 Y18.880
G01 F200 X68.929 Y19.062
G01 F200 X68.872 Y19.237
G01 F200 X68.781 Y19.395
G01 F200 X68.658 Y19.532
G01 F200 X68.510 Y19.639
G01 F200 X68.342 Y19.714
G01 F200 X68.163 Y19.752
G01 F200 X67.980 Y19.752
G00 F3000 Z3.000
G00 F3000 X70.520 Y19.752
G00 F1500 Z0
G01 F200 Z-0.200
G01 F200 X70.340 Y19.714
G01 F200 X70.173 Y19.639
G01 F200 X70.025 Y19.532
G01 F200 X69.902 Y19.395
G01 F200 X69.810 Y19.237
G01 F200 X69.754 Y19.062
G01 F200 X69.735 Y18.880
G01 F200 X69.754 Y18.698
G01 F200 X69.810 Y18.523
G01 F200 X69.902 Y18.365
G01 F200 X70.025 Y18.229
G01 F200 X70.173 Y18.121
G01 F200 X70.340 Y18.046
G01 F200 X70.520 Y18.008
G01 F200 X70.703 Y18.008
G01 F200 X70.882 Y18.046
G01 F200 X71.050 Y18.121
G01 F200 X71.198 Y18.229
G01 F200 X71.321 Y18.365
G01 F200 X71.412 Y18.523
G01 F200 X71.469 Y18.698
G01 F200 X71.488 Y18.880
G01 F200 X71.469 Y19.062
G01 F200 X71.412 Y19.237
G01 F200 X71.321 Y19.395
G01 F200 X71.198 Y19.532
G01 F200 X71.050 Y19.639
G01 F200 X70.882 Y19.714
G01 F200 X70.703 Y19.752
G01 F200 X70.520 Y19.752
G00 F3000 Z3.000
G00 F3000 X62.900 Y19.752
G00 F1500 Z0
G01 F200 Z-0.200
G01 F200 X62.720 Y19.714
G01 F200 X62.553 Y19.639
G01 F200 X62.405 Y19.532
G01 F200 X62.282 Y19.395
G01 F200 X62.190 Y19.237
G01 F200 X62.134 Y19.062
G01 F200 X62.115 Y18.880
G01 F200 X62.134 Y18.698
G01 F200 X62.190 Y18.523
G01 F200 X62.282 Y18.365
G01 F200 X62.405 Y18.229
G01 F200 X62.553 Y18.121
G01 F200 X62.720 Y18.046
G01 F200 X62.900 Y18.008
G01 F200 X63.083 Y18.008
G01 F200 X63.262 Y18.046
G01 F200 X63.430 Y18.121
G01 F200 X63.578 Y18.229
G01 F200 X63.701 Y18.365
G01 F200 X63.792 Y18.523
G01 F200 X63.849 Y18.698
G01 F200 X63.868 Y18.880
G01 F200 X63.849 Y19.062
G01 F200 X63.792 Y19.237
G01 F200 X63.701 Y19.395
G01 F200 X63.578 Y19.532
G01 F200 X63.430 Y19.639
G01 F200 X63.262 Y19.714
G01 F200 X63.083 Y19.752
G01 F200 X62.900 Y19.752
G00 F3000 Z3.000
G00 F3000 X65.440 Y19.752
G00 F1500 Z0
G01 F200 Z-0.200
G01 F200 X65.260 Y19.714
G01 F200 X65.093 Y19.639
G01 F200 X64.945 Y19.532
G01 F200 X64.822 Y19.395
G01 F200 X64.730 Y19.237
G01 F200 X64.674 Y19.062
G01 F200 X64.655 Y18.880
G01 F200 X64.674 Y18.698
G01 F200 X64.730 Y18.523
G01 F200 X64.822 Y18.365
G01 F200 X64.945 Y18.229
G01 F200 X65.093 Y18.121
G01 F200 X65.260 Y18.046
G01 F200 X65.440 Y18.008
G01 F200 X65.623 Y18.008
G01 F200 X65.802 Y18.046
G01 F200 X65.970 Y18.121
G01 F200 X66.118 Y18.229
G01 F200 X66.241 Y18.365
G01 F200 X66.332 Y18.523
G01 F200 X66.389 Y18.698
G01 F200 X66.408 Y18.880
G01 F200 X66.389 Y19.062
G01 F200 X66.332 Y19.237
G01 F200 X66.241 Y19.395
G01 F200 X66.118 Y19.532
G01 F200 X65.970 Y19.639
G01 F200 X65.802 Y19.714
G01 F200 X65.623 Y19.752
G01 F200 X65.440 Y19.752
G00 F3000 Z3.000
G00 F3000 X29.145 Y18.436
G00 F1500 Z0
G01 F200 Z-0.200
G01 F200 X29.145 Y16.784
G01 F200 X29.645 Y16.784
G01 F200 X29.645 Y16.544
G01 F200 X24.608 Y11.507
G01 F200 X24.566 Y11.460
G01 F200 X24.532 Y11.401
G01 F200 X24.511 Y11.336
G01 F200 X24.504 Y11.273
G01 F200 X24.504 Y7.857
G01 F200 X19.874 Y3.227
G01 F200 X7.096 Y3.227
G01 F200 X5.169 Y5.154
G01 F200 X5.115 Y5.193
G01 F200 X5.053 Y5.221
G01 F200 X4.986 Y5.235
G01 F200 X4.578 Y5.235
G01 F200 X4.578 Y5.786
G01 F200 X2.025 Y5.786
G01 F200 X2.025 Y4.034
G01 F200 X4.578 Y4.034
G01 F200 X4.578 Y4.585
G01 F200 X4.815 Y4.585
G01 F200 X6.743 Y2.658
G01 F200 X6.796 Y2.619
G01 F200 X6.859 Y2.591
G01 F200 X6.926 Y2.577
G01 F200 X20.044 Y2.577
G01 F200 X20.111 Y2.591
G01 F200 X20.174 Y2.619
G01 F200 X20.227 Y2.658
G01 F200 X25.053 Y7.484
G01 F200 X25.094 Y7.530
G01 F200 X25.129 Y7.589
G01 F200 X25.150 Y7.654
G01 F200 X25.156 Y7.718
G01 F200 X25.156 Y11.134
G01 F200 X30.194 Y16.171
G01 F200 X30.236 Y16.218
G01 F200 X30.270 Y16.277
G01 F200 X30.291 Y16.342
G01 F200 X30.298 Y16.406
G01 F200 X30.298 Y16.784
G01 F200 X30.798 Y16.784
G01 F200 X30.798 Y18.436
G01 F200 X29.145 Y18.436
G00 F3000 Z3.000
G00 F3000 X41.310 Y17.212
G00 F1500 Z0
G01 F200 Z-0.200
G01 F200 X41.130 Y17.174
G01 F200 X40.963 Y17.099
G01 F200 X40.815 Y16.992
G01 F200 X40.692 Y16.855
G01 F200 X40.600 Y16.697
G01 F200 X40.590 Y16.665
G01 F200 X33.747 Y16.665
G01 F200 X33.680 Y16.651
G01 F200 X33.618 Y16.623
G01 F200 X33.564 Y16.584
G01 F200 X32.815 Y15.835
G01 F200 X32.767 Y15.856
G01 F200 X32.598 Y15.892
G01 F200 X32.425 Y15.892
G01 F200 X32.256 Y15.856
G01 F200 X32.098 Y15.786
G01 F200 X31.958 Y15.684
G01 F200 X31.843 Y15.556
G01 F200 X31.756 Y15.406
G01 F200 X31.703 Y15.242
G01 F200 X31.685 Y15.070
G01 F200 X31.703 Y14.898
G01 F200 X31.756 Y14.734
G01 F200 X31.843 Y14.584
G01 F200 X31.958 Y14.456
G01 F200 X32.098 Y14.354
G01 F200 X32.256 Y14.284
G01 F200 X32.425 Y14.248
G01 F200 X32.598 Y14.248
G01 F200 X32.767 Y14.284
G01 F200 X32.925 Y14.354
G01 F200 X33.065 Y14.456
G01 F200 X33.180 Y14.584
G01 F200 X33.267 Y14.734
G01 F200 X33.320 Y14.898
G01 F200 X33.338 Y15.070
G01 F200 X33.320 Y15.243
G01 F200 X33.275 Y15.372
G01 F200 X33.917 Y16.015
G01 F200 X40.590 Y16.015
G01 F200 X40.600 Y15.983
G01 F200 X40.692 Y15.825
G01 F200 X40.815 Y15.689
G01 F200 X40.963 Y15.581
G01 F200 X41.130 Y15.506
G01 F200 X41.310 Y15.468
G01 F200 X41.493 Y15.468
G01 F200 X41.672 Y15.506
G01 F200 X41.840 Y15.581
G01 F200 X41.988 Y15.689
G01 F200 X42.111 Y15.825
G01 F200 X42.202 Y15.983
G01 F200 X42.259 Y16.158
G01 F200 X42.278 Y16.340
G01 F200 X42.259 Y16.522
G01 F200 X42.202 Y16.697
G01 F200 X42.111 Y16.855
G01 F200 X41.988 Y16.992
G01 F200 X41.840 Y17.099
G01 F200 X41.672 Y17.174
G01 F200 X41.493 Y17.212
G01 F200 X41.310 Y17.212
G00 F3000 Z3.000
G00 F3000 X3.210 Y17.212
G00 F1500 Z0
G01 F200 Z-0.200
G01 F200 X3.030 Y17.174
G01 F200 X2.863 Y17.099
G01 F200 X2.715 Y16.992
G01 F200 X2.592 Y16.855
G01 F200 X2.500 Y16.697
G01 F200 X2.444 Y16.522
G01 F200 X2.425 Y16.340
G01 F200 X2.444 Y16.158
G01 F200 X2.496 Y15.996
G01 F200 X1.417 Y14.917
G01 F200 X1.376 Y14.871
G01 F200 X1.342 Y14.812
G01 F200 X1.320 Y14.747
G01 F200 X1.314 Y14.683
G01 F200 X1.314 Y12.005
G01 F200 X1.320 Y11.941
G01 F200 X1.342 Y11.876
G01 F200 X1.376 Y11.817
G01 F200 X1.417 Y11.770
G01 F200 X1.927 Y11.260
G01 F200 X1.428 Y10.761
G01 F200 X1.387 Y10.715
G01 F200 X1.353 Y10.655
G01 F200 X1.331 Y10.590
G01 F200 X1.325 Y10.527
G01 F200 X1.325 Y7.774
G01 F200 X1.331 Y7.710
G01 F200 X1.353 Y7.645
G01 F200 X1.387 Y7.586
G01 F200 X1.428 Y7.540
G01 F200 X1.762 Y7.206
G01 F200 X1.816 Y7.167
G01 F200 X1.878 Y7.139
G01 F200 X1.945 Y7.125
G01 F200 X2.091 Y7.125
G01 F200 X2.142 Y7.012
G01 F200 X2.250 Y6.863
G01 F200 X2.386 Y6.741
G01 F200 X2.545 Y6.649
G01 F200 X2.719 Y6.592
G01 F200 X2.897 Y6.574
G01 F200 X3.705 Y6.574
G01 F200 X3.884 Y6.592
G01 F200 X4.058 Y6.649
G01 F200 X4.217 Y6.741
G01 F200 X4.353 Y6.863
G01 F200 X4.461 Y7.012
G01 F200 X4.535 Y7.179
G01 F200 X4.573 Y7.358
G01 F200 X4.573 Y7.542
G01 F200 X4.535 Y7.721
G01 F200 X4.461 Y7.888
G01 F200 X4.353 Y8.037
G01 F200 X4.217 Y8.159
G01 F200 X4.058 Y8.251
G01 F200 X3.884 Y8.308
G01 F200 X3.705 Y8.326
G01 F200 X2.897 Y8.326
G01 F200 X2.719 Y8.308
G01 F200 X2.545 Y8.251
G01 F200 X2.386 Y8.159
G01 F200 X2.250 Y8.037
G01 F200 X2.142 Y7.888
G01 F200 X2.099 Y7.791
G01 F200 X1.977 Y7.913
G01 F200 X1.977 Y10.388
G01 F200 X2.525 Y10.935
G01 F200 X7.865 Y10.935
G01 F200 X8.945 Y9.855
G01 F200 X8.945 Y6.825
G01 F200 X8.951 Y6.761
G01 F200 X8.973 Y6.696
G01 F200 X9.007 Y6.637
G01 F200 X9.048 Y6.590
G01 F200 X9.476 Y6.163
G01 F200 X9.043 Y5.729
G01 F200 X9.001 Y5.683
G01 F200 X8.967 Y5.624
G01 F200 X8.946 Y5.559
G01 F200 X8.939 Y5.495
G01 F200 X8.939 Y4.382
G01 F200 X8.946 Y4.319
G01 F200 X8.967 Y4.253
G01 F200 X9.001 Y4.194
G01 F200 X9.043 Y4.148
G01 F200 X9.829 Y3.362
G01 F200 X9.882 Y3.323
G01 F200 X9.945 Y3.295
G01 F200 X10.011 Y3.281
G01 F200 X18.422 Y3.281
G01 F200 X18.488 Y3.295
G01 F200 X18.551 Y3.323
G01 F200 X18.604 Y3.362
G01 F200 X19.231 Y3.989
G01 F200 X19.466 Y3.884
G01 F200 X19.721 Y3.830
G01 F200 X19.982 Y3.830
G01 F200 X20.237 Y3.884
G01 F200 X20.475 Y3.990
G01 F200 X20.686 Y4.144
G01 F200 X20.860 Y4.337
G01 F200 X20.990 Y4.563
G01 F200 X21.071 Y4.811
G01 F200 X21.098 Y5.070
G01 F200 X21.071 Y5.329
G01 F200 X20.990 Y5.577
G01 F200 X20.860 Y5.803
G01 F200 X20.686 Y5.997
G01 F200 X20.475 Y6.150
G01 F200 X20.237 Y6.256
G01 F200 X19.982 Y6.310
G01 F200 X19.721 Y6.310
G01 F200 X19.466 Y6.256
G01 F200 X19.228 Y6.150
G01 F200 X19.017 Y5.997
G01 F200 X18.843 Y5.803
G01 F200 X18.712 Y5.577
G01 F200 X18.632 Y5.329
G01 F200 X18.605 Y5.070
G01 F200 X18.632 Y4.811
G01 F200 X18.712 Y4.563
G01 F200 X18.775 Y4.455
G01 F200 X18.251 Y3.931
G01 F200 X10.182 Y3.931
G01 F200 X9.592 Y4.521
G01 F200 X9.592 Y5.356
G01 F200 X10.073 Y5.838
G01 F200 X13.478 Y5.838
G01 F200 X13.545 Y5.852
G01 F200 X13.607 Y5.880
G01 F200 X13.661 Y5.919
G01 F200 X21.731 Y13.989
G01 F200 X21.966 Y13.884
G01 F200 X22.221 Y13.830
G01 F200 X22.482 Y13.830
G01 F200 X22.737 Y13.884
G01 F200 X22.975 Y13.990
G01 F200 X23.186 Y14.144
G01 F200 X23.360 Y14.337
G01 F200 X23.490 Y14.563
G01 F200 X23.571 Y14.811
G01 F200 X23.598 Y15.070
G01 F200 X23.571 Y15.329
G01 F200 X23.490 Y15.577
G01 F200 X23.360 Y15.803
G01 F200 X23.186 Y15.997
G01 F200 X22.975 Y16.150
G01 F200 X22.737 Y16.256
G01 F200 X22.482 Y16.310
G01 F200 X22.221 Y16.310
G01 F200 X21.966 Y16.256
G01 F200 X21.728 Y16.150
G01 F200 X21.517 Y15.997
G01 F200 X21.343 Y15.803
G01 F200 X21.212 Y15.577
G01 F200 X21.132 Y15.329
G01 F200 X21.105 Y15.070
G01 F200 X21.132 Y14.811
G01 F200 X21.212 Y14.563
G01 F200 X21.275 Y14.455
G01 F200 X13.308 Y6.488
G01 F200 X10.073 Y6.488
G01 F200 X9.597 Y6.963
G01 F200 X9.597 Y9.665
G01 F200 X9.712 Y9.665
G01 F200 X9.762 Y9.552
G01 F200 X9.870 Y9.403
G01 F200 X10.006 Y9.281
G01 F200 X10.165 Y9.189
G01 F200 X10.339 Y9.132
G01 F200 X10.517 Y9.114
G01 F200 X11.325 Y9.114
G01 F200 X11.504 Y9.132
G01 F200 X11.678 Y9.189
G01 F200 X11.837 Y9.281
G01 F200 X11.973 Y9.403
G01 F200 X12.081 Y9.552
G01 F200 X12.155 Y9.719
G01 F200 X12.193 Y9.898
G01 F200 X12.193 Y10.082
G01 F200 X12.155 Y10.261
G01 F200 X12.081 Y10.428
G01 F200 X11.973 Y10.577
G01 F200 X11.837 Y10.699
G01 F200 X11.678 Y10.791
G01 F200 X11.504 Y10.848
G01 F200 X11.325 Y10.866
G01 F200 X10.517 Y10.866
G01 F200 X10.339 Y10.848
G01 F200 X10.165 Y10.791
G01 F200 X10.006 Y10.699
G01 F200 X9.870 Y10.577
G01 F200 X9.762 Y10.428
G01 F200 X9.712 Y10.315
G01 F200 X9.407 Y10.315
G01 F200 X8.218 Y11.504
G01 F200 X8.164 Y11.543
G01 F200 X8.102 Y11.571
G01 F200 X8.035 Y11.585
G01 F200 X2.525 Y11.585
G01 F200 X1.966 Y12.143
G01 F200 X1.966 Y14.544
G01 F200 X2.960 Y15.538
G01 F200 X3.030 Y15.506
G01 F200 X3.210 Y15.468
G01 F200 X3.393 Y15.468
G01 F200 X3.572 Y15.506
G01 F200 X3.740 Y15.581
G01 F200 X3.888 Y15.689
G01 F200 X4.011 Y15.825
G01 F200 X4.102 Y15.983
G01 F200 X4.159 Y16.158
G01 F200 X4.178 Y16.340
G01 F200 X4.159 Y16.522
G01 F200 X4.102 Y16.697
G01 F200 X4.011 Y16.855
G01 F200 X3.888 Y16.992
G01 F200 X3.740 Y17.099
G01 F200 X3.572 Y17.174
G01 F200 X3.393 Y17.212
G01 F200 X3.210 Y17.212
G00 F3000 Z3.000
G00 F3000 X12.100 Y17.212
G00 F1500 Z0
G01 F200 Z-0.200
G01 F200 X11.920 Y17.174
G01 F200 X11.753 Y17.099
G01 F200 X11.605 Y16.992
G01 F200 X11.482 Y16.855
G01 F200 X11.390 Y16.697
G01 F200 X11.334 Y16.522
G01 F200 X11.315 Y16.340
G01 F200 X11.334 Y16.158
G01 F200 X11.390 Y15.983
G01 F200 X11.482 Y15.825
G01 F200 X11.605 Y15.689
G01 F200 X11.753 Y15.581
G01 F200 X11.920 Y15.506
G01 F200 X12.100 Y15.468
G01 F200 X12.245 Y15.468
G01 F200 X12.245 Y12.855
G01 F200 X12.131 Y12.855
G01 F200 X12.081 Y12.968
G01 F200 X11.973 Y13.117
G01 F200 X11.837 Y13.239
G01 F200 X11.678 Y13.331
G01 F200 X11.504 Y13.388
G01 F200 X11.325 Y13.406
G01 F200 X10.517 Y13.406
G01 F200 X10.339 Y13.388
G01 F200 X10.165 Y13.331
G01 F200 X10.006 Y13.239
G01 F200 X9.870 Y13.117
G01 F200 X9.762 Y12.968
G01 F200 X9.688 Y12.801
G01 F200 X9.649 Y12.622
G01 F200 X9.649 Y12.438
G01 F200 X9.688 Y12.259
G01 F200 X9.762 Y12.092
G01 F200 X9.870 Y11.943
G01 F200 X10.006 Y11.821
G01 F200 X10.165 Y11.729
G01 F200 X10.339 Y11.672
G01 F200 X10.517 Y11.654
G01 F200 X11.325 Y11.654
G01 F200 X11.504 Y11.672
G01 F200 X11.678 Y11.729
G01 F200 X11.837 Y11.821
G01 F200 X11.973 Y11.943
G01 F200 X12.081 Y12.092
G01 F200 X12.131 Y12.205
G01 F200 X12.606 Y12.205
G01 F200 X12.673 Y12.219
G01 F200 X12.735 Y12.247
G01 F200 X12.790 Y12.287
G01 F200 X12.836 Y12.338
G01 F200 X12.870 Y12.397
G01 F200 X12.891 Y12.462
G01 F200 X12.898 Y12.526
G01 F200 X12.898 Y15.822
G01 F200 X12.901 Y15.825
G01 F200 X12.992 Y15.983
G01 F200 X13.049 Y16.158
G01 F200 X13.068 Y16.340
G01 F200 X13.049 Y16.522
G01 F200 X12.992 Y16.697
G01 F200 X12.901 Y16.855
G01 F200 X12.778 Y16.992
G01 F200 X12.630 Y17.099
G01 F200 X12.462 Y17.174
G01 F200 X12.283 Y17.212
G01 F200 X12.100 Y17.212
G00 F3000 Z3.000
G00 F3000 X60.869 Y14.115
G00 F1500 Z0
G01 F200 Z-0.200
G01 F200 X60.803 Y14.101
G01 F200 X60.740 Y14.073
G01 F200 X60.687 Y14.034
G01 F200 X59.857 Y13.205
G01 F200 X51.379 Y13.205
G01 F200 X51.312 Y13.191
G01 F200 X51.250 Y13.163
G01 F200 X51.196 Y13.124
G01 F200 X50.069 Y11.997
G01 F200 X50.027 Y11.950
G01 F200 X49.993 Y11.891
G01 F200 X49.972 Y11.826
G01 F200 X49.965 Y11.763
G01 F200 X49.965 Y10.340
G01 F200 X42.783 Y10.340
G01 F200 X42.184 Y10.970
G01 F200 X42.222 Y11.086
G01 F200 X42.240 Y11.260
G01 F200 X42.222 Y11.434
G01 F200 X42.168 Y11.601
G01 F200 X42.080 Y11.753
G01 F200 X41.962 Y11.883
G01 F200 X41.821 Y11.986
G01 F200 X41.660 Y12.058
G01 F200 X41.489 Y12.094
G01 F200 X41.314 Y12.094
G01 F200 X41.142 Y12.058
G01 F200 X40.982 Y11.986
G01 F200 X40.840 Y11.883
G01 F200 X40.723 Y11.753
G01 F200 X40.635 Y11.601
G01 F200 X40.581 Y11.434
G01 F200 X40.563 Y11.260
G01 F200 X40.581 Y11.086
G01 F200 X40.635 Y10.919
G01 F200 X40.723 Y10.767
G01 F200 X40.840 Y10.637
G01 F200 X40.982 Y10.534
G01 F200 X41.142 Y10.462
G01 F200 X41.314 Y10.426
G01 F200 X41.489 Y10.426
G01 F200 X41.660 Y10.462
G01 F200 X41.714 Y10.486
G01 F200 X42.429 Y9.771
G01 F200 X42.482 Y9.733
G01 F200 X42.545 Y9.705
G01 F200 X42.612 Y9.691
G01 F200 X53.940 Y9.691
G01 F200 X59.646 Y3.984
G01 F200 X59.594 Y3.822
G01 F200 X59.575 Y3.640
G01 F200 X59.594 Y3.458
G01 F200 X59.650 Y3.283
G01 F200 X59.742 Y3.125
G01 F200 X59.865 Y2.989
G01 F200 X60.013 Y2.881
G01 F200 X60.180 Y2.806
G01 F200 X60.360 Y2.768
G01 F200 X60.543 Y2.768
G01 F200 X60.722 Y2.806
G01 F200 X60.890 Y2.881
G01 F200 X61.038 Y2.989
G01 F200 X61.161 Y3.125
G01 F200 X61.252 Y3.283
G01 F200 X61.309 Y3.458
G01 F200 X61.328 Y3.640
G01 F200 X61.309 Y3.822
G01 F200 X61.252 Y3.997
G01 F200 X61.161 Y4.155
G01 F200 X61.038 Y4.292
G01 F200 X60.890 Y4.399
G01 F200 X60.722 Y4.474
G01 F200 X60.543 Y4.512
G01 F200 X60.360 Y4.512
G01 F200 X60.180 Y4.474
G01 F200 X60.110 Y4.442
G01 F200 X54.293 Y10.260
G01 F200 X54.239 Y10.298
G01 F200 X54.177 Y10.326
G01 F200 X54.110 Y10.340
G01 F200 X50.618 Y10.340
G01 F200 X50.618 Y11.624
G01 F200 X51.549 Y12.555
G01 F200 X60.028 Y12.555
G01 F200 X60.094 Y12.569
G01 F200 X60.157 Y12.597
G01 F200 X60.210 Y12.636
G01 F200 X61.040 Y13.465
G01 F200 X63.370 Y13.465
G01 F200 X63.935 Y12.900
G01 F200 X63.935 Y12.115
G01 F200 X62.769 Y10.948
G01 F200 X62.727 Y10.902
G01 F200 X62.693 Y10.843
G01 F200 X62.672 Y10.778
G01 F200 X62.665 Y10.714
G01 F200 X62.665 Y9.529
G01 F200 X62.553 Y9.479
G01 F200 X62.405 Y9.372
G01 F200 X62.282 Y9.235
G01 F200 X62.190 Y9.077
G01 F200 X62.134 Y8.902
G01 F200 X62.115 Y8.720
G01 F200 X62.134 Y8.538
G01 F200 X62.190 Y8.363
G01 F200 X62.282 Y8.205
G01 F200 X62.405 Y8.069
G01 F200 X62.553 Y7.961
G01 F200 X62.720 Y7.886
G01 F200 X62.900 Y7.848
G01 F200 X63.083 Y7.848
G01 F200 X63.262 Y7.886
G01 F200 X63.430 Y7.961
G01 F200 X63.578 Y8.069
G01 F200 X63.701 Y8.205
G01 F200 X63.792 Y8.363
G01 F200 X63.849 Y8.538
G01 F200 X63.868 Y8.720
G01 F200 X63.849 Y8.902
G01 F200 X63.792 Y9.077
G01 F200 X63.701 Y9.235
G01 F200 X63.578 Y9.372
G01 F200 X63.430 Y9.479
G01 F200 X63.318 Y9.529
G01 F200 X63.318 Y10.575
G01 F200 X64.484 Y11.742
G01 F200 X64.526 Y11.788
G01 F200 X64.560 Y11.847
G01 F200 X64.581 Y11.912
G01 F200 X64.588 Y11.976
G01 F200 X64.588 Y13.039
G01 F200 X64.581 Y13.103
G01 F200 X64.560 Y13.168
G01 F200 X64.526 Y13.227
G01 F200 X64.484 Y13.273
G01 F200 X63.723 Y14.034
G01 F200 X63.670 Y14.073
G01 F200 X63.607 Y14.101
G01 F200 X63.540 Y14.115
G01 F200 X60.869 Y14.115
G00 F3000 Z3.000
G00 F3000 X62.900 Y13.402
G00 F1500 Z0
G01 F200 Z-0.200
G01 F200 X62.720 Y13.364
G01 F200 X62.553 Y13.289
G01 F200 X62.405 Y13.181
G01 F200 X62.282 Y13.045
G01 F200 X62.190 Y12.887
G01 F200 X62.180 Y12.855
G01 F200 X61.707 Y12.855
G01 F200 X61.640 Y12.841
G01 F200 X61.578 Y12.813
G01 F200 X61.524 Y12.774
G01 F200 X57.921 Y9.171
G01 F200 X55.588 Y11.504
G01 F200 X55.535 Y11.543
G01 F200 X55.472 Y11.571
G01 F200 X55.406 Y11.585
G01 F200 X52.333 Y11.585
G01 F200 X52.328 Y11.601
G01 F200 X52.240 Y11.753
G01 F200 X52.123 Y11.883
G01 F200 X51.981 Y11.986
G01 F200 X51.821 Y12.058
G01 F200 X51.649 Y12.094
G01 F200 X51.474 Y12.094
G01 F200 X51.302 Y12.058
G01 F200 X51.142 Y11.986
G01 F200 X51.000 Y11.883
G01 F200 X50.883 Y11.753
G01 F200 X50.795 Y11.601
G01 F200 X50.741 Y11.434
G01 F200 X50.723 Y11.260
G01 F200 X50.741 Y11.086
G01 F200 X50.795 Y10.919
G01 F200 X50.883 Y10.767
G01 F200 X51.000 Y10.637
G01 F200 X51.142 Y10.534
G01 F200 X51.302 Y10.462
G01 F200 X51.474 Y10.426
G01 F200 X51.649 Y10.426
G01 F200 X51.821 Y10.462
G01 F200 X51.981 Y10.534
G01 F200 X52.123 Y10.637
G01 F200 X52.240 Y10.767
G01 F200 X52.328 Y10.919
G01 F200 X52.333 Y10.935
G01 F200 X55.235 Y10.935
G01 F200 X62.186 Y3.984
G01 F200 X62.134 Y3.822
G01 F200 X62.115 Y3.640
G01 F200 X62.134 Y3.458
G01 F200 X62.190 Y3.283
G01 F200 X62.282 Y3.125
G01 F200 X62.405 Y2.989
G01 F200 X62.553 Y2.881
G01 F200 X62.720 Y2.806
G01 F200 X62.900 Y2.768
G01 F200 X63.083 Y2.768
G01 F200 X63.262 Y2.806
G01 F200 X63.430 Y2.881
G01 F200 X63.578 Y2.989
G01 F200 X63.701 Y3.125
G01 F200 X63.792 Y3.283
G01 F200 X63.849 Y3.458
G01 F200 X63.868 Y3.640
G01 F200 X63.849 Y3.822
G01 F200 X63.792 Y3.997
G01 F200 X63.701 Y4.155
G01 F200 X63.578 Y4.292
G01 F200 X63.430 Y4.399
G01 F200 X63.262 Y4.474
G01 F200 X63.083 Y4.512
G01 F200 X62.900 Y4.512
G01 F200 X62.720 Y4.474
G01 F200 X62.650 Y4.442
G01 F200 X58.382 Y8.710
G01 F200 X61.877 Y12.205
G01 F200 X62.180 Y12.205
G01 F200 X62.190 Y12.173
G01 F200 X62.282 Y12.015
G01 F200 X62.405 Y11.879
G01 F200 X62.553 Y11.771
G01 F200 X62.720 Y11.696
G01 F200 X62.900 Y11.658
G01 F200 X63.083 Y11.658
G01 F200 X63.262 Y11.696
G01 F200 X63.430 Y11.771
G01 F200 X63.578 Y11.879
G01 F200 X63.701 Y12.015
G01 F200 X63.792 Y12.173
G01 F200 X63.849 Y12.348
G01 F200 X63.868 Y12.530
G01 F200 X63.849 Y12.712
G01 F200 X63.792 Y12.887
G01 F200 X63.701 Y13.045
G01 F200 X63.578 Y13.181
G01 F200 X63.430 Y13.289
G01 F200 X63.262 Y13.364
G01 F200 X63.083 Y13.402
G01 F200 X62.900 Y13.402
G00 F3000 Z3.000
G00 F3000 X29.884 Y12.094
G00 F1500 Z0
G01 F200 Z-0.200
G01 F200 X29.712 Y12.058
G01 F200 X29.552 Y11.986
G01 F200 X29.410 Y11.883
G01 F200 X29.293 Y11.753
G01 F200 X29.205 Y11.601
G01 F200 X29.151 Y11.434
G01 F200 X29.133 Y11.260
G01 F200 X29.151 Y11.086
G01 F200 X29.205 Y10.919
G01 F200 X29.293 Y10.767
G01 F200 X29.410 Y10.637
G01 F200 X29.552 Y10.534
G01 F200 X29.712 Y10.462
G01 F200 X29.884 Y10.426
G01 F200 X30.059 Y10.426
G01 F200 X30.231 Y10.462
G01 F200 X30.391 Y10.534
G01 F200 X30.533 Y10.637
G01 F200 X30.650 Y10.767
G01 F200 X30.738 Y10.919
G01 F200 X30.792 Y11.086
G01 F200 X30.810 Y11.260
G01 F200 X30.792 Y11.434
G01 F200 X30.738 Y11.601
G01 F200 X30.650 Y11.753
G01 F200 X30.533 Y11.883
G01 F200 X30.391 Y11.986
G01 F200 X30.231 Y12.058
G01 F200 X30.059 Y12.094
G01 F200 X29.884 Y12.094
G00 F3000 Z3.000
G00 F3000 X27.344 Y12.094
G00 F1500 Z0
G01 F200 Z-0.200
G01 F200 X27.172 Y12.058
G01 F200 X27.012 Y11.986
G01 F200 X26.870 Y11.883
G01 F200 X26.753 Y11.753
G01 F200 X26.665 Y11.601
G01 F200 X26.611 Y11.434
G01 F200 X26.593 Y11.260
G01 F200 X26.611 Y11.086
G01 F200 X26.665 Y10.919
G01 F200 X26.753 Y10.767
G01 F200 X26.870 Y10.637
G01 F200 X27.012 Y10.534
G01 F200 X27.105 Y10.492
G01 F200 X27.105 Y9.378
G01 F200 X20.250 Y2.522
G01 F200 X3.513 Y2.522
G01 F200 X1.977 Y4.058
G01 F200 X1.977 Y5.763
G01 F200 X2.069 Y5.855
G01 F200 X4.266 Y5.855
G01 F200 X4.333 Y5.869
G01 F200 X4.395 Y5.897
G01 F200 X4.449 Y5.936
G01 F200 X5.174 Y6.662
G01 F200 X5.216 Y6.708
G01 F200 X5.250 Y6.767
G01 F200 X5.271 Y6.832
G01 F200 X5.278 Y6.896
G01 F200 X5.278 Y9.994
G01 F200 X5.271 Y10.058
G01 F200 X5.250 Y10.123
G01 F200 X5.216 Y10.182
G01 F200 X5.170 Y10.233
G01 F200 X5.115 Y10.273
G01 F200 X5.053 Y10.301
G01 F200 X4.986 Y10.315
G01 F200 X4.511 Y10.315
G01 F200 X4.461 Y10.428
G01 F200 X4.353 Y10.577
G01 F200 X4.217 Y10.699
G01 F200 X4.058 Y10.791
G01 F200 X3.884 Y10.848
G01 F200 X3.705 Y10.866
