( PCB drills )
( Generated by Rapid-PCB.com )
( Material Size)
( X= 85.000, Y= 47.000, Z= 1.200)
()
G00
G17
G21
G40
G49
G54
G80
G90
G94
G00 F3000 Z3.000
M03 S9000
G00 F3000 X80.771 Y40.470
G00 F1500 Z0
G01 F60 Z-1.200
G00 F3000 Z3.000
G00 F3000 X75.691 Y45.550
G00 F1500 Z0
G01 F60 Z-1.200
G00 F3000 Z3.000
G00 F3000 X75.691 Y43.010
G00 F1500 Z0
G01 F60 Z-1.200
G00 F3000 Z3.000
G00 F3000 X75.691 Y37.930
G00 F1500 Z0
G01 F60 Z-1.200
G00 F3000 Z3.000
G00 F3000 X75.691 Y35.390
G00 F1500 Z0
G01 F60 Z-1.200
G00 F3000 Z3.000
G00 F3000 X37.591 Y11.260
G00 F1500 Z0
G01 F60 Z-1.200
G00 F3000 Z3.000
G00 F3000 X35.051 Y11.260
G00 F1500 Z0
G01 F60 Z-1.200
G00 F3000 Z3.000
G00 F3000 X32.511 Y6.180
G00 F1500 Z0
G01 F60 Z-1.200
G00 F3000 Z3.000
G00 F3000 X29.971 Y11.260
G00 F1500 Z0
G01 F60 Z-1.200
G00 F3000 Z3.000
G00 F3000 X27.431 Y11.260
G00 F1500 Z0
G01 F60 Z-1.200
G00 F3000 Z3.000
G00 F3000 X51.561 Y11.260
G00 F1500 Z0
G01 F60 Z-1.200
G00 F3000 Z3.000
G00 F3000 X49.021 Y11.260
G00 F1500 Z0
G01 F60 Z-1.200
G00 F3000 Z3.000
G00 F3000 X46.481 Y6.180
G00 F1500 Z0
G01 F60 Z-1.200
G00 F3000 Z3.000
G00 F3000 X43.941 Y11.260
G00 F1500 Z0
G01 F60 Z-1.200
G00 F3000 Z3.000
G00 F3000 X41.401 Y11.260
G00 F1500 Z0
G01 F60 Z-1.200
G00 F3000 Z3.000
G00 F3000 X80.771 Y27.770
G00 F1500 Z0
G01 F60 Z-1.200
G00 F3000 Z3.000
G00 F3000 X75.691 Y32.850
G00 F1500 Z0
G01 F60 Z-1.200
G00 F3000 Z3.000
G00 F3000 X75.691 Y30.310
G00 F1500 Z0
G01 F60 Z-1.200
G00 F3000 Z3.000
G00 F3000 X75.691 Y25.230
G00 F1500 Z0
G01 F60 Z-1.200
G00 F3000 Z3.000
G00 F3000 X75.691 Y22.690
G00 F1500 Z0
G01 F60 Z-1.200
G00 F3000 Z3.000
G00 F3000 X61.721 Y22.055
G00 F1500 Z0
G01 F60 Z-1.200
G00 F3000 Z3.000
G00 F3000 X57.276 Y20.785
G00 F1500 Z0
G01 F60 Z-1.200
G00 F3000 Z3.000
G00 F3000 X21.081 Y31.580
G00 F1500 Z0
G01 F60 Z-1.200
G00 F3000 Z3.000
G00 F3000 X21.081 Y26.500
G00 F1500 Z0
G01 F60 Z-1.200
G00 F3000 Z3.000
G00 F3000 X12.191 Y23.325
G00 F1500 Z0
G01 F60 Z-1.200
G00 F3000 Z3.000
G00 F3000 X10.286 Y24.595
G00 F1500 Z0
G01 F60 Z-1.200
G00 F3000 Z3.000
G00 F3000 X3.301 Y21.341
G00 F1500 Z0
G01 F60 Z-1.200
G00 F3000 Z3.000
G00 F3000 X3.301 Y16.340
G00 F1500 Z0
G01 F60 Z-1.200
G00 F3000 Z3.000
G00 F3000 X51.561 Y16.340
G00 F1500 Z0
G01 F60 Z-1.200
G00 F3000 Z3.000
G00 F3000 X41.401 Y16.340
G00 F1500 Z0
G01 F60 Z-1.200
G00 F3000 Z3.000
G00 F3000 X42.671 Y43.645
G00 F1500 Z0
G01 F60 Z-1.200
G00 F3000 Z3.000
G00 F3000 X40.131 Y43.645
G00 F1500 Z0
G01 F60 Z-1.200
G00 F3000 Z3.000
G00 F3000 X37.591 Y43.645
G00 F1500 Z0
G01 F60 Z-1.200
G00 F3000 Z3.000
G00 F3000 X35.051 Y43.645
G00 F1500 Z0
G01 F60 Z-1.200
G00 F3000 Z3.000
G00 F3000 X73.151 Y12.530
G00 F1500 Z0
G01 F60 Z-1.200
G00 F3000 Z3.000
G00 F3000 X62.991 Y12.530
G00 F1500 Z0
G01 F60 Z-1.200
G00 F3000 Z3.000
G00 F3000 X29.971 Y36.660
G00 F1500 Z0
G01 F60 Z-1.200
G00 F3000 Z3.000
G00 F3000 X29.971 Y26.500
G00 F1500 Z0
G01 F60 Z-1.200
G00 F3000 Z3.000
G00 F3000 X10.921 Y12.530
G00 F1500 Z0
G01 F60 Z-1.200
G00 F3000 Z3.000
G00 F3000 X10.921 Y9.990
G00 F1500 Z0
G01 F60 Z-1.200
G00 F3000 Z3.000
G00 F3000 X10.921 Y7.450
G00 F1500 Z0
G01 F60 Z-1.200
G00 F3000 Z3.000
G00 F3000 X10.921 Y4.910
G00 F1500 Z0
G01 F60 Z-1.200
G00 F3000 Z3.000
G00 F3000 X3.301 Y12.530
G00 F1500 Z0
G01 F60 Z-1.200
G00 F3000 Z3.000
G00 F3000 X3.301 Y9.990
G00 F1500 Z0
G01 F60 Z-1.200
G00 F3000 Z3.000
G00 F3000 X3.301 Y7.450
G00 F1500 Z0
G01 F60 Z-1.200
G00 F3000 Z3.000
G00 F3000 X3.301 Y4.910
G00 F1500 Z0
G01 F60 Z-1.200
G00 F3000 Z3.000
G00 F3000 X57.911 Y44.280
G00 F1500 Z0
G01 F60 Z-1.200
G00 F3000 Z3.000
G00 F3000 X57.911 Y36.660
G00 F1500 Z0
G01 F60 Z-1.200
G00 F3000 Z3.000
G00 F3000 X55.371 Y44.280
G00 F1500 Z0
G01 F60 Z-1.200
G00 F3000 Z3.000
G00 F3000 X55.371 Y36.660
G00 F1500 Z0
G01 F60 Z-1.200
G00 F3000 Z3.000
G00 F3000 X57.911 Y31.580
G00 F1500 Z0
G01 F60 Z-1.200
G00 F3000 Z3.000
G00 F3000 X57.911 Y23.960
G00 F1500 Z0
G01 F60 Z-1.200
G00 F3000 Z3.000
G00 F3000 X55.371 Y31.580
G00 F1500 Z0
G01 F60 Z-1.200
G00 F3000 Z3.000
G00 F3000 X55.371 Y23.960
G00 F1500 Z0
G01 F60 Z-1.200
G00 F3000 Z3.000
G00 F3000 X43.941 Y38.565
G00 F1500 Z0
G01 F60 Z-1.200
G00 F3000 Z3.000
G00 F3000 X43.941 Y30.945
G00 F1500 Z0
G01 F60 Z-1.200
G00 F3000 Z3.000
G00 F3000 X39.496 Y38.565
G00 F1500 Z0
G01 F60 Z-1.200
G00 F3000 Z3.000
G00 F3000 X39.496 Y30.945
G00 F1500 Z0
G01 F60 Z-1.200
G00 F3000 Z3.000
G00 F3000 X73.151 Y8.720
G00 F1500 Z0
G01 F60 Z-1.200
G00 F3000 Z3.000
G00 F3000 X62.991 Y8.720
G00 F1500 Z0
G01 F60 Z-1.200
G00 F3000 Z3.000
G00 F3000 X35.051 Y17.610
G00 F1500 Z0
G01 F60 Z-1.200
G00 F3000 Z3.000
G00 F3000 X32.511 Y15.070
G00 F1500 Z0
G01 F60 Z-1.200
G00 F3000 Z3.000
G00 F3000 X29.971 Y17.610
G00 F1500 Z0
G01 F60 Z-1.200
G00 F3000 Z3.000
G00 F3000 X12.191 Y16.340
G00 F1500 Z0
G01 F60 Z-1.200
G00 F3000 Z3.000
G00 F3000 X7.190 Y16.340
G00 F1500 Z0
G01 F60 Z-1.200
G00 F3000 Z3.000
G00 F3000 X17.271 Y21.420
G00 F1500 Z0
G01 F60 Z-1.200
G00 F3000 Z3.000
G00 F3000 X14.731 Y21.420
G00 F1500 Z0
G01 F60 Z-1.200
G00 F3000 Z3.000
G00 F3000 X12.191 Y21.420
G00 F1500 Z0
G01 F60 Z-1.200
G00 F3000 Z3.000
G00 F3000 X9.651 Y21.420
G00 F1500 Z0
G01 F60 Z-1.200
G00 F3000 Z3.000
G00 F3000 X7.111 Y21.420
G00 F1500 Z0
G01 F60 Z-1.200
G00 F3000 Z3.000
G00 F3000 X35.051 Y33.485
G00 F1500 Z0
G01 F60 Z-1.200
G00 F3000 Z3.000
G00 F3000 X35.051 Y23.325
G00 F1500 Z0
G01 F60 Z-1.200
G00 F3000 Z3.000
G00 F3000 X50.291 Y22.690
G00 F1500 Z0
G01 F60 Z-1.200
G00 F3000 Z3.000
G00 F3000 X40.131 Y22.690
G00 F1500 Z0
G01 F60 Z-1.200
G00 F3000 Z3.000
G00 F3000 X18.541 Y26.500
G00 F1500 Z0
G01 F60 Z-1.200
G00 F3000 Z3.000
G00 F3000 X8.381 Y26.500
G00 F1500 Z0
G01 F60 Z-1.200
G00 F3000 Z3.000
G00 F3000 X47.751 Y38.565
G00 F1500 Z0
G01 F60 Z-1.200
G00 F3000 Z3.000
G00 F3000 X47.751 Y30.945
G00 F1500 Z0
G01 F60 Z-1.200
G00 F3000 Z3.000
G00 F3000 X50.291 Y26.500
G00 F1500 Z0
G01 F60 Z-1.200
G00 F3000 Z3.000
G00 F3000 X40.131 Y26.500
G00 F1500 Z0
G01 F60 Z-1.200
G00 F3000 Z3.000
G00 F3000 X69.341 Y30.310
G00 F1500 Z0
G01 F60 Z-1.200
G00 F3000 Z3.000
G00 F3000 X69.341 Y25.309
G00 F1500 Z0
G01 F60 Z-1.200
G00 F3000 Z3.000
G00 F3000 X64.340 Y30.310
G00 F1500 Z0
G01 F60 Z-1.200
G00 F3000 Z3.000
G00 F3000 X64.340 Y25.309
G00 F1500 Z0
G01 F60 Z-1.200
G00 F3000 Z3.000
G00 F3000 X69.263 Y42.931
G00 F1500 Z0
G01 F60 Z-1.200
G00 F3000 Z3.000
G00 F3000 X69.263 Y37.930
G00 F1500 Z0
G01 F60 Z-1.200
G00 F3000 Z3.000
G00 F3000 X64.261 Y42.931
G00 F1500 Z0
G01 F60 Z-1.200
G00 F3000 Z3.000
G00 F3000 X64.261 Y37.930
G00 F1500 Z0
G01 F60 Z-1.200
G00 F3000 Z3.000
G00 F3000 X83.311 Y18.880
G00 F1500 Z0
G01 F60 Z-1.200
G00 F3000 Z3.000
G00 F3000 X83.311 Y3.640
G00 F1500 Z0
G01 F60 Z-1.200
G00 F3000 Z3.000
G00 F3000 X80.771 Y18.880
G00 F1500 Z0
G01 F60 Z-1.200
G00 F3000 Z3.000
G00 F3000 X80.771 Y3.640
G00 F1500 Z0
G01 F60 Z-1.200
G00 F3000 Z3.000
G00 F3000 X78.231 Y18.880
G00 F1500 Z0
G01 F60 Z-1.200
G00 F3000 Z3.000
G00 F3000 X78.231 Y3.640
G00 F1500 Z0
G01 F60 Z-1.200
G00 F3000 Z3.000
G00 F3000 X75.691 Y18.880
G00 F1500 Z0
G01 F60 Z-1.200
G00 F3000 Z3.000
G00 F3000 X75.691 Y3.640
G00 F1500 Z0
G01 F60 Z-1.200
G00 F3000 Z3.000
G00 F3000 X73.151 Y18.880
G00 F1500 Z0
G01 F60 Z-1.200
G00 F3000 Z3.000
G00 F3000 X73.151 Y3.640
G00 F1500 Z0
G01 F60 Z-1.200
G00 F3000 Z3.000
G00 F3000 X70.611 Y18.880
G00 F1500 Z0
G01 F60 Z-1.200
G00 F3000 Z3.000
G00 F3000 X70.611 Y3.640
G00 F1500 Z0
G01 F60 Z-1.200
G00 F3000 Z3.000
G00 F3000 X68.071 Y18.880
G00 F1500 Z0
G01 F60 Z-1.200
G00 F3000 Z3.000
G00 F3000 X68.071 Y3.640
G00 F1500 Z0
G01 F60 Z-1.200
G00 F3000 Z3.000
G00 F3000 X65.531 Y18.880
G00 F1500 Z0
G01 F60 Z-1.200
G00 F3000 Z3.000
G00 F3000 X65.531 Y3.640
G00 F1500 Z0
G01 F60 Z-1.200
G00 F3000 Z3.000
G00 F3000 X62.991 Y18.880
G00 F1500 Z0
G01 F60 Z-1.200
G00 F3000 Z3.000
G00 F3000 X62.991 Y3.640
G00 F1500 Z0
G01 F60 Z-1.200
G00 F3000 Z3.000
G00 F3000 X60.451 Y18.880
G00 F1500 Z0
G01 F60 Z-1.200
G00 F3000 Z3.000
G00 F3000 X60.451 Y3.640
G00 F1500 Z0
G01 F60 Z-1.200
G00 F3000 Z3.000
G00 F3000 X57.911 Y18.880
G00 F1500 Z0
G01 F60 Z-1.200
G00 F3000 Z3.000
G00 F3000 X57.911 Y3.640
G00 F1500 Z0
G01 F60 Z-1.200
G00 F3000 Z3.000
G00 F3000 X55.371 Y18.880
G00 F1500 Z0
G01 F60 Z-1.200
G00 F3000 Z3.000
G00 F3000 X55.371 Y3.640
G00 F1500 Z0
G01 F60 Z-1.200
G00 F3000 Z3.000
G00 F3000 X22.351 Y15.070
G00 F1500 Z0
G01 F60 Z-1.200
G00 F3000 Z3.000
G00 F3000 X19.852 Y5.070
G00 F1500 Z0
G01 F60 Z-1.200
G00 F3000 Z3.000
G00 F3000 X17.350 Y15.070
G00 F1500 Z0
G01 F60 Z-1.200
G00 F3000 Z3.000
G00 F3000 Z3.000
G00 F3000 X0.000 Y0.000
M05
M30
%